;----Postprocessor by CEAD Group for NX RMR. post version 1111222_7.9 (release 10-05-2023)----
;Part name:             C:\Users\LRT-6_Messrechner\Desktop\Varun\freeform_7_setup_1.prt
;Programmed by:         LRT-6_Messrechner
;Post date/time:        Wed Feb 19 2025, 14:48
;Amount of operations:  1 (HELICAL_90DEG)
;Total object height:   83.00mm
;Total estimated weight:0.92kg
;Total print time:      13min (0.2hrs)
;---------enter overall compensations below----------
N10 DEF REAL Z_RAFT=0; fixed compensations
N12 DEF REAL X_COMP=100,Y_COMP=0,Z_COMP=0; user compensations
;----------------------------------------------------
;Initiate operation: HELICAL_90DEG (additive)
;----------------------------------------------------
;Orientation:         Planar, 90.00 degrees
;Layers:              LH=3.0mm, LW=8mm
;Milling excess:      0.0mm
;Feedrate priority:   MINIMUM LAYER TIME
;Minimum layer time:  
;Actual output:       
;Material:            CEAD Basic PP, 1.14cc/m3
;Flow multiplier:     1.0
;Nozzle:              CEAD_E25_TAPER_6MM
;Extruder type:       Gearpump
;Retract:             0.7cc
;Deretract:           1.2cc
;Retract time:        1.5sec
;----------------------------------------------------
N14 PRESETON(E,0);        Reset extruder axis value
N16 EXTRUSIONMULTIPLIER;  Activate extrusion multiplier override
N18 M365;                 Initiate gearpump pressure
N20 ;ZEROBED(1);          uncomment to reset currently selected CSYS to printbed factory default
; $P_UIFR[1]=CTRANS(X,1481.294178,Y,-682.095127,Z,80.932820):CROT(X,0.000000,Y,-0.000000,Z,0.000000)
N22 DEVICE(EXTRUDER)
N24 TRAORI
N26 ;start of print toolpath
N28 FIFOCTRL G645 SOFT COMPCAD UPATH
N30 G54
N32 TRANS X=X_COMP Y=Y_COMP Z=Z_COMP+Z_RAFT ELX=Y_COMP
;-----------------------LAYER 1----------------------
;Layer time:         
;First layer flow multiplier: 1.70
;----------------------------------------------------
N34 G17 G94 G90 CP X840.035 Y236.741 Z50.997 A0 B0 C25 ELX0.000 F1500.000 E=0.000; RAPID
N36 X840.035 Y236.741 Z50.997 A0 B0 C25 ELX0.000 F1500.000
N38 X840.035 Y236.741 Z5.997 A0 B0 C25 ELX0.000 F1500.000; Move to lowest height
N40 X840.035 Y236.741 Z0.997 A0 B0 C25 ELX0.000 F1500.000 F100.000
N42 X840.035 Y236.741 Z0.997 A0 B0 C25 ELX0.000 F1500.000
N44 SETAL(67017); Confirm Z-height is OK. Continue with OK and Cycle start on the MCP.
N46 M0
N48 X840.035 Y236.741 Z10.997 A0 B0 C25 ELX0.000 F1500.000
N50 PRESETON(E,0)
N52 G1 E=3.000 F100.000; Purging
N54 PRESETON(E,0)
N56 G1 F100.000
N58 X840.035 Y236.741 Z0.997 A0 B0 C25 ELX0.000 F1500.000E=1.200;Engage
;Start of toolpath
N62 X842.797 Y234.567 Z0.997 A0 B0 C25 ELX0.000 F1348.000 E=1.221
N64 X849.026 Y229.298 Z0.997 A0 B0 C25 ELX0.000 F1348.000 E=1.270
N66 X851.410 Y227.148 Z0.997 A0 B0 C25 ELX0.000 F1348.000 E=1.289
N68 X853.848 Y224.984 Z0.997 A0 B0 C25 ELX0.000 F1348.000 E=1.309
N70 X859.593 Y219.632 Z0.997 A0 B0 C25 ELX0.000 F1348.000 E=1.356
N72 X865.467 Y214.064 Z0.997 A0 B0 C25 ELX0.000 F1348.000 E=1.405
N74 X867.758 Y211.799 Z0.997 A0 B0 C25 ELX0.000 F1348.000 E=1.424
N76 X869.964 Y209.559 Z0.997 A0 B0 C25 ELX0.000 F1348.000 E=1.443
N78 X880.214 Y199.094 Z0.997 A0 B0 C25 ELX0.000 F1348.000 E=1.531
N80 X883.679 Y195.717 Z0.997 A0 B0 C25 ELX0.000 F1348.000 E=1.560
N82 X886.209 Y193.344 Z0.997 A0 B0 C25 ELX0.000 F1348.000 E=1.580
N84 X886.209 Y193.344 Z1.497 A0 B0 C25 ELX0.000 F1500.000 E=1.380; Retract
N86 X886.209 Y193.344 Z11.497 A0 B0 C25 ELX0.000 F1500.000; Departure
N88 X886.209 Y193.344 Z11.497 A0 B0 C25 ELX0.000 F1500.000 E 1.080; Retract
N90 X870.293 Y146.283 Z11.497 A0 B0 C25 ELX0.000 F1500.000; Apporach
N92 X870.293 Y146.283 Z0.997 A0 B0 C25 ELX0.000 F1500.000 E 2.280; Engage
N94 X876.827 Y139.645 Z0.997 A0 B0 C25 ELX0.000 F1348.000 E=2.336
N96 X880.843 Y135.561 Z0.997 A0 B0 C25 ELX0.000 F1348.000 E=2.371
N98 X887.370 Y129.220 Z0.997 A0 B0 C25 ELX0.000 F1348.000 E=2.425
N100 X893.643 Y123.554 Z0.997 A0 B0 C25 ELX0.000 F1348.000 E=2.476
N102 X899.930 Y117.953 Z0.997 A0 B0 C25 ELX0.000 F1348.000 E=2.527
N104 X904.000 Y114.034 Z0.997 A0 B0 C25 ELX0.000 F1348.000 E=2.560
N106 X909.232 Y108.514 Z0.997 A0 B0 C25 ELX0.000 F1348.000 E=2.606
N108 X915.396 Y101.631 Z0.997 A0 B0 C25 ELX0.000 F1348.000 E=2.662
N110 X918.455 Y98.266 Z0.997 A0 B0 C25 ELX0.000 F1348.000 E=2.689
N112 X924.484 Y92.028 Z0.997 A0 B0 C25 ELX0.000 F1348.000 E=2.741
N114 X928.363 Y88.532 Z0.997 A0 B0 C25 ELX0.000 F1348.000 E=2.772
N116 X932.787 Y84.590 Z0.997 A0 B0 C25 ELX0.000 F1348.000 E=2.808
N118 X936.266 Y80.834 Z0.997 A0 B0 C25 ELX0.000 F1348.000 E=2.838
N120 X939.751 Y77.487 Z0.997 A0 B0 C25 ELX0.000 F1348.000 E=2.867
N122 X941.468 Y74.589 Z0.997 A0 B0 C25 ELX0.000 F1348.000 E=2.888
N124 X942.985 Y71.770 Z0.997 A0 B0 C25 ELX0.000 F1348.000 E=2.907
N126 X942.440 Y66.322 Z0.997 A0 B0 C25 ELX0.000 F1348.000 E=2.940
N128 X938.753 Y63.443 Z0.997 A0 B0 C25 ELX0.000 F1348.000 E=2.968
N130 X933.112 Y61.686 Z0.997 A0 B0 C25 ELX0.000 F1348.000 E=3.003
N132 X926.867 Y60.761 Z0.997 A0 B0 C25 ELX0.000 F1348.000 E=3.041
N134 X922.327 Y60.542 Z0.997 A0 B0 C25 ELX0.000 F1348.000 E=3.068
N136 X915.541 Y60.033 Z0.997 A0 B0 C25 ELX0.000 F1348.000 E=3.109
N138 X911.712 Y59.869 Z0.997 A0 B0 C25 ELX0.000 F1348.000 E=3.132
N140 X905.645 Y59.610 Z0.997 A0 B0 C25 ELX0.000 F1348.000 E=3.169
N142 X901.043 Y59.372 Z0.997 A0 B0 C25 ELX0.000 F1348.000 E=3.196
N144 X896.131 Y59.217 Z0.997 A0 B0 C25 ELX0.000 F1348.000 E=3.226
N146 X891.503 Y59.155 Z0.997 A0 B0 C25 ELX0.000 F1348.000 E=3.254
N148 X886.998 Y58.935 Z0.997 A0 B0 C25 ELX0.000 F1348.000 E=3.281
N150 X881.893 Y58.727 Z0.997 A0 B0 C25 ELX0.000 F1348.000 E=3.311
N152 X876.796 Y58.500 Z0.997 A0 B0 C25 ELX0.000 F1348.000 E=3.342
N154 X871.661 Y58.260 Z0.997 A0 B0 C25 ELX0.000 F1348.000 E=3.373
N156 X867.108 Y58.151 Z0.997 A0 B0 C25 ELX0.000 F1348.000 E=3.400
N158 X862.084 Y57.923 Z0.997 A0 B0 C25 ELX0.000 F1348.000 E=3.430
N160 X856.894 Y57.650 Z0.997 A0 B0 C25 ELX0.000 F1348.000 E=3.461
N162 X851.360 Y57.475 Z0.997 A0 B0 C25 ELX0.000 F1348.000 E=3.495
N164 X845.652 Y57.234 Z0.997 A0 B0 C25 ELX0.000 F1348.000 E=3.529
N166 X842.349 Y57.059 Z0.997 A0 B0 C25 ELX0.000 F1348.000 E=3.549
N168 X838.167 Y56.835 Z0.997 A0 B0 C25 ELX0.000 F1348.000 E=3.574
N170 X833.311 Y56.648 Z0.997 A0 B0 C25 ELX0.000 F1348.000 E=3.603
N172 X828.382 Y56.462 Z0.997 A0 B0 C25 ELX0.000 F1348.000 E=3.633
N174 X820.703 Y56.181 Z0.997 A0 B0 C25 ELX0.000 F1348.000 E=3.679
N176 X815.247 Y55.987 Z0.997 A0 B0 C25 ELX0.000 F1348.000 E=3.712
N178 X811.345 Y55.890 Z0.997 A0 B0 C25 ELX0.000 F1348.000 E=3.735
N180 X805.098 Y55.699 Z0.997 A0 B0 C25 ELX0.000 F1348.000 E=3.772
N182 X801.860 Y55.608 Z0.997 A0 B0 C25 ELX0.000 F1348.000 E=3.792
N184 X794.492 Y55.383 Z0.997 A0 B0 C25 ELX0.000 F1348.000 E=3.836
N186 X787.537 Y55.153 Z0.997 A0 B0 C25 ELX0.000 F1348.000 E=3.878
N188 X782.175 Y54.948 Z0.997 A0 B0 C25 ELX0.000 F1348.000 E=3.910
N190 X777.113 Y54.748 Z0.997 A0 B0 C25 ELX0.000 F1348.000 E=3.940
N192 X772.569 Y54.545 Z0.997 A0 B0 C25 ELX0.000 F1348.000 E=3.968
N194 X769.379 Y54.399 Z0.997 A0 B0 C25 ELX0.000 F1348.000 E=3.987
N196 X765.075 Y54.234 Z0.997 A0 B0 C25 ELX0.000 F1348.000 E=4.013
N198 X756.164 Y53.906 Z0.997 A0 B0 C25 ELX0.000 F1348.000 E=4.066
N200 X749.110 Y53.627 Z0.997 A0 B0 C25 ELX0.000 F1348.000 E=4.109
N202 X743.663 Y53.672 Z0.997 A0 B0 C25 ELX0.000 F1348.000 E=4.141
N204 X737.290 Y53.318 Z0.997 A0 B0 C25 ELX0.000 F1348.000 E=4.180
N206 X731.925 Y53.187 Z0.997 A0 B0 C25 ELX0.000 F1348.000 E=4.212
N208 X723.821 Y52.964 Z0.997 A0 B0 C25 ELX0.000 F1348.000 E=4.260
N210 X718.645 Y52.861 Z0.997 A0 B0 C25 ELX0.000 F1348.000 E=4.291
N212 X714.821 Y52.744 Z0.997 A0 B0 C25 ELX0.000 F1348.000 E=4.314
N214 X711.740 Y52.583 Z0.997 A0 B0 C25 ELX0.000 F1348.000 E=4.333
N216 X708.726 Y52.466 Z0.997 A0 B0 C25 ELX0.000 F1348.000 E=4.351
N218 X701.782 Y51.981 Z0.997 A0 B0 C25 ELX0.000 F1348.000 E=4.393
N220 X695.272 Y51.376 Z0.997 A0 B0 C25 ELX0.000 F1348.000 E=4.432
N222 X691.890 Y50.833 Z0.997 A0 B0 C25 ELX0.000 F1348.000 E=4.453
N224 X687.869 Y50.219 Z0.997 A0 B0 C25 ELX0.000 F1348.000 E=4.477
N226 X683.981 Y49.512 Z0.997 A0 B0 C25 ELX0.000 F1348.000 E=4.501
N228 X678.088 Y48.115 Z0.997 A0 B0 C25 ELX0.000 F1348.000 E=4.537
N230 X673.878 Y47.041 Z0.997 A0 B0 C25 ELX0.000 F1348.000 E=4.563
N232 X670.337 Y46.075 Z0.997 A0 B0 C25 ELX0.000 F1348.000 E=4.585
N234 X666.841 Y45.184 Z0.997 A0 B0 C25 ELX0.000 F1348.000 E=4.607
N236 X661.339 Y43.692 Z0.997 A0 B0 C25 ELX0.000 F1348.000 E=4.641
N238 X655.129 Y42.266 Z0.997 A0 B0 C25 ELX0.000 F1348.000 E=4.679
N240 X649.008 Y41.135 Z0.997 A0 B0 C25 ELX0.000 F1348.000 E=4.717
N242 X641.197 Y40.131 Z0.997 A0 B0 C25 ELX0.000 F1348.000 E=4.764
N244 X632.641 Y39.514 Z0.997 A0 B0 C25 ELX0.000 F1348.000 E=4.815
N246 X628.590 Y39.376 Z0.997 A0 B0 C25 ELX0.000 F1348.000 E=4.840
N248 X621.886 Y39.158 Z0.997 A0 B0 C25 ELX0.000 F1348.000 E=4.880
N250 X615.186 Y39.023 Z0.997 A0 B0 C25 ELX0.000 F1348.000 E=4.920
N252 X609.934 Y38.950 Z0.997 A0 B0 C25 ELX0.000 F1348.000 E=4.952
N254 X603.464 Y38.873 Z0.997 A0 B0 C25 ELX0.000 F1348.000 E=4.990
N256 X598.038 Y38.808 Z0.997 A0 B0 C25 ELX0.000 F1348.000 E=5.023
N258 X592.055 Y38.801 Z0.997 A0 B0 C25 ELX0.000 F1348.000 E=5.059
N260 X587.685 Y38.838 Z0.997 A0 B0 C25 ELX0.000 F1348.000 E=5.085
N262 X584.550 Y38.885 Z0.997 A0 B0 C25 ELX0.000 F1348.000 E=5.104
N264 X578.615 Y38.925 Z0.997 A0 B0 C25 ELX0.000 F1348.000 E=5.139
N266 X574.592 Y39.024 Z0.997 A0 B0 C25 ELX0.000 F1348.000 E=5.164
N268 X570.122 Y39.147 Z0.997 A0 B0 C25 ELX0.000 F1348.000 E=5.190
N270 X567.059 Y39.199 Z0.997 A0 B0 C25 ELX0.000 F1348.000 E=5.209
N272 X564.043 Y39.264 Z0.997 A0 B0 C25 ELX0.000 F1348.000 E=5.227
N274 X559.196 Y39.387 Z0.997 A0 B0 C25 ELX0.000 F1348.000 E=5.256
N276 X552.414 Y39.504 Z0.997 A0 B0 C25 ELX0.000 F1348.000 E=5.297
N278 X547.236 Y39.557 Z0.997 A0 B0 C25 ELX0.000 F1348.000 E=5.328
N280 X541.342 Y39.569 Z0.997 A0 B0 C25 ELX0.000 F1348.000 E=5.363
N282 X536.213 Y39.535 Z0.997 A0 B0 C25 ELX0.000 F1348.000 E=5.394
N284 X531.157 Y39.514 Z0.997 A0 B0 C25 ELX0.000 F1348.000 E=5.424
N286 X527.042 Y39.468 Z0.997 A0 B0 C25 ELX0.000 F1348.000 E=5.449
N288 X522.791 Y39.432 Z0.997 A0 B0 C25 ELX0.000 F1348.000 E=5.474
N290 X517.799 Y39.408 Z0.997 A0 B0 C25 ELX0.000 F1348.000 E=5.504
N292 X513.409 Y39.390 Z0.997 A0 B0 C25 ELX0.000 F1348.000 E=5.531
N294 X508.271 Y39.423 Z0.997 A0 B0 C25 ELX0.000 F1348.000 E=5.562
N296 X502.908 Y39.477 Z0.997 A0 B0 C25 ELX0.000 F1348.000 E=5.594
N298 X499.208 Y39.513 Z0.997 A0 B0 C25 ELX0.000 F1348.000 E=5.616
N300 X494.720 Y39.568 Z0.997 A0 B0 C25 ELX0.000 F1348.000 E=5.643
N302 X487.546 Y39.667 Z0.997 A0 B0 C25 ELX0.000 F1348.000 E=5.686
N304 X481.210 Y39.738 Z0.997 A0 B0 C25 ELX0.000 F1348.000 E=5.724
N306 X477.410 Y39.769 Z0.997 A0 B0 C25 ELX0.000 F1348.000 E=5.747
N308 X472.361 Y39.798 Z0.997 A0 B0 C25 ELX0.000 F1348.000 E=5.777
N310 X468.051 Y39.803 Z0.997 A0 B0 C25 ELX0.000 F1348.000 E=5.803
N312 X463.494 Y39.792 Z0.997 A0 B0 C25 ELX0.000 F1348.000 E=5.830
N314 X459.954 Y39.760 Z0.997 A0 B0 C25 ELX0.000 F1348.000 E=5.852
N316 X456.175 Y39.726 Z0.997 A0 B0 C25 ELX0.000 F1348.000 E=5.874
N318 X452.326 Y39.677 Z0.997 A0 B0 C25 ELX0.000 F1348.000 E=5.897
N320 X448.918 Y39.602 Z0.997 A0 B0 C25 ELX0.000 F1348.000 E=5.918
N322 X445.354 Y39.501 Z0.997 A0 B0 C25 ELX0.000 F1348.000 E=5.939
N324 X441.242 Y39.394 Z0.997 A0 B0 C25 ELX0.000 F1348.000 E=5.964
N326 X437.794 Y39.291 Z0.997 A0 B0 C25 ELX0.000 F1348.000 E=5.985
N328 X433.898 Y39.188 Z0.997 A0 B0 C25 ELX0.000 F1348.000 E=6.008
N330 X430.241 Y39.111 Z0.997 A0 B0 C25 ELX0.000 F1348.000 E=6.030
N332 X426.959 Y39.114 Z0.997 A0 B0 C25 ELX0.000 F1348.000 E=6.050
N334 X421.633 Y39.098 Z0.997 A0 B0 C25 ELX0.000 F1348.000 E=6.081
N336 X414.175 Y39.373 Z0.997 A0 B0 C25 ELX0.000 F1348.000 E=6.126
N338 X407.926 Y39.901 Z0.997 A0 B0 C25 ELX0.000 F1348.000 E=6.164
N340 X402.660 Y40.591 Z0.997 A0 B0 C25 ELX0.000 F1348.000 E=6.196
N342 X397.625 Y41.328 Z0.997 A0 B0 C25 ELX0.000 F1348.000 E=6.226
N344 X391.635 Y42.361 Z0.997 A0 B0 C25 ELX0.000 F1348.000 E=6.263
N346 X386.127 Y43.387 Z0.997 A0 B0 C25 ELX0.000 F1348.000 E=6.296
N348 X381.835 Y44.248 Z0.997 A0 B0 C25 ELX0.000 F1348.000 E=6.323
N350 X377.125 Y45.162 Z0.997 A0 B0 C25 ELX0.000 F1348.000 E=6.351
N352 X374.168 Y45.759 Z0.997 A0 B0 C25 ELX0.000 F1348.000 E=6.370
N354 X369.859 Y46.588 Z0.997 A0 B0 C25 ELX0.000 F1348.000 E=6.396
N356 X365.875 Y47.453 Z0.997 A0 B0 C25 ELX0.000 F1348.000 E=6.420
N358 X362.843 Y48.069 Z0.997 A0 B0 C25 ELX0.000 F1348.000 E=6.439
N360 X357.774 Y49.057 Z0.997 A0 B0 C25 ELX0.000 F1348.000 E=6.470
N362 X351.531 Y50.392 Z0.997 A0 B0 C25 ELX0.000 F1348.000 E=6.508
N364 X348.532 Y50.906 Z0.997 A0 B0 C25 ELX0.000 F1348.000 E=6.526
N366 X343.211 Y51.997 Z0.997 A0 B0 C25 ELX0.000 F1348.000 E=6.559
N368 X338.908 Y52.665 Z0.997 A0 B0 C25 ELX0.000 F1348.000 E=6.585
N370 X335.476 Y53.104 Z0.997 A0 B0 C25 ELX0.000 F1348.000 E=6.606
N372 X332.236 Y53.470 Z0.997 A0 B0 C25 ELX0.000 F1348.000 E=6.625
N374 X328.889 Y53.880 Z0.997 A0 B0 C25 ELX0.000 F1348.000 E=6.646
N376 X325.500 Y54.163 Z0.997 A0 B0 C25 ELX0.000 F1348.000 E=6.666
N378 X321.989 Y54.341 Z0.997 A0 B0 C25 ELX0.000 F1348.000 E=6.687
N380 X318.563 Y54.588 Z0.997 A0 B0 C25 ELX0.000 F1348.000 E=6.708
N382 X314.996 Y54.702 Z0.997 A0 B0 C25 ELX0.000 F1348.000 E=6.729
N384 X309.311 Y54.732 Z0.997 A0 B0 C25 ELX0.000 F1348.000 E=6.763
N386 X304.043 Y54.960 Z0.997 A0 B0 C25 ELX0.000 F1348.000 E=6.795
N388 X298.329 Y55.028 Z0.997 A0 B0 C25 ELX0.000 F1348.000 E=6.829
N390 X292.687 Y55.052 Z0.997 A0 B0 C25 ELX0.000 F1348.000 E=6.863
N392 X289.256 Y55.216 Z0.997 A0 B0 C25 ELX0.000 F1348.000 E=6.884
N394 X284.534 Y55.295 Z0.997 A0 B0 C25 ELX0.000 F1348.000 E=6.912
N396 X280.659 Y55.302 Z0.997 A0 B0 C25 ELX0.000 F1348.000 E=6.935
N398 X272.835 Y55.549 Z0.997 A0 B0 C25 ELX0.000 F1348.000 E=6.982
N400 X268.863 Y55.815 Z0.997 A0 B0 C25 ELX0.000 F1348.000 E=7.006
N402 X263.122 Y55.934 Z0.997 A0 B0 C25 ELX0.000 F1348.000 E=7.041
N404 X259.699 Y56.117 Z0.997 A0 B0 C25 ELX0.000 F1348.000 E=7.061
N406 X255.202 Y56.331 Z0.997 A0 B0 C25 ELX0.000 F1348.000 E=7.088
N408 X251.099 Y56.468 Z0.997 A0 B0 C25 ELX0.000 F1348.000 E=7.113
N410 X246.847 Y56.688 Z0.997 A0 B0 C25 ELX0.000 F1348.000 E=7.138
N412 X243.628 Y56.864 Z0.997 A0 B0 C25 ELX0.000 F1348.000 E=7.158
N414 X237.329 Y57.128 Z0.997 A0 B0 C25 ELX0.000 F1348.000 E=7.196
N416 X234.203 Y57.277 Z0.997 A0 B0 C25 ELX0.000 F1348.000 E=7.214
N418 X229.309 Y57.532 Z0.997 A0 B0 C25 ELX0.000 F1348.000 E=7.244
N420 X224.741 Y57.750 Z0.997 A0 B0 C25 ELX0.000 F1348.000 E=7.271
N422 X218.643 Y58.010 Z0.997 A0 B0 C25 ELX0.000 F1348.000 E=7.308
N424 X210.367 Y58.467 Z0.997 A0 B0 C25 ELX0.000 F1348.000 E=7.358
N426 X206.722 Y58.651 Z0.997 A0 B0 C25 ELX0.000 F1348.000 E=7.379
N428 X200.905 Y58.950 Z0.997 A0 B0 C25 ELX0.000 F1348.000 E=7.414
N430 X194.528 Y59.288 Z0.997 A0 B0 C25 ELX0.000 F1348.000 E=7.453
N432 X191.134 Y59.529 Z0.997 A0 B0 C25 ELX0.000 F1348.000 E=7.473
N434 X186.413 Y59.731 Z0.997 A0 B0 C25 ELX0.000 F1348.000 E=7.501
N436 X181.730 Y60.024 Z0.997 A0 B0 C25 ELX0.000 F1348.000 E=7.530
N438 X177.095 Y60.281 Z0.997 A0 B0 C25 ELX0.000 F1348.000 E=7.557
N440 X170.527 Y60.672 Z0.997 A0 B0 C25 ELX0.000 F1348.000 E=7.597
N442 X165.572 Y61.003 Z0.997 A0 B0 C25 ELX0.000 F1348.000 E=7.627
N444 X161.224 Y61.261 Z0.997 A0 B0 C25 ELX0.000 F1348.000 E=7.653
N446 X157.207 Y61.601 Z0.997 A0 B0 C25 ELX0.000 F1348.000 E=7.677
N448 X153.817 Y61.766 Z0.997 A0 B0 C25 ELX0.000 F1348.000 E=7.697
N450 X149.184 Y62.038 Z0.997 A0 B0 C25 ELX0.000 F1348.000 E=7.725
N452 X145.042 Y62.335 Z0.997 A0 B0 C25 ELX0.000 F1348.000 E=7.750
N454 X140.645 Y62.617 Z0.997 A0 B0 C25 ELX0.000 F1348.000 E=7.777
N456 X134.550 Y63.093 Z0.997 A0 B0 C25 ELX0.000 F1348.000 E=7.813
N458 X129.748 Y63.360 Z0.997 A0 B0 C25 ELX0.000 F1348.000 E=7.842
N460 X124.698 Y63.676 Z0.997 A0 B0 C25 ELX0.000 F1348.000 E=7.873
N462 X119.688 Y64.020 Z0.997 A0 B0 C25 ELX0.000 F1348.000 E=7.903
N464 X116.365 Y64.307 Z0.997 A0 B0 C25 ELX0.000 F1348.000 E=7.923
N466 X112.602 Y64.662 Z0.997 A0 B0 C25 ELX0.000 F1348.000 E=7.945
N468 X109.577 Y65.101 Z0.997 A0 B0 C25 ELX0.000 F1348.000 E=7.964
N470 X104.051 Y65.884 Z0.997 A0 B0 C25 ELX0.000 F1348.000 E=7.997
N472 X104.051 Y65.884 Z1.497 A0 B0 C25 ELX0.000 F1500.000 E=7.797; Retract
N474 X104.051 Y65.884 Z11.497 A0 B0 C25 ELX0.000 F1500.000; Departure
N476 X104.051 Y65.884 Z11.497 A0 B0 C25 ELX0.000 F1500.000 E 7.497; Retract
N478 X44.815 Y97.886 Z11.497 A0 B0 C25 ELX0.000 F1500.000; Apporach
N480 X44.815 Y97.886 Z0.997 A0 B0 C25 ELX0.000 F1500.000 E 8.697; Engage
N482 X42.185 Y94.030 Z0.997 A0 B0 C25 ELX0.000 F1348.000 E=8.725
N484 X39.136 Y87.899 Z0.997 A0 B0 C25 ELX0.000 F1348.000 E=8.766
N486 X36.657 Y81.984 Z0.997 A0 B0 C25 ELX0.000 F1348.000 E=8.805
N488 X34.449 Y74.338 Z0.997 A0 B0 C25 ELX0.000 F1348.000 E=8.852
N490 X34.449 Y74.338 Z1.497 A0 B0 C25 ELX0.000 F1500.000 E=8.652; Retract
N492 X34.449 Y74.338 Z11.497 A0 B0 C25 ELX0.000 F1500.000; Departure
N494 X34.449 Y74.338 Z11.497 A0 B0 C25 ELX0.000 F1500.000 E 8.352; Retract
N496 X34.286 Y48.515 Z11.497 A0 B0 C25 ELX0.000 F1500.000; Apporach
N498 X34.286 Y48.515 Z0.997 A0 B0 C25 ELX0.000 F1500.000 E 9.552; Engage
N500 X35.610 Y54.140 Z0.997 A0 B0 C25 ELX0.000 F1348.000 E=9.587
N502 X36.380 Y57.125 Z0.997 A0 B0 C25 ELX0.000 F1348.000 E=9.606
N504 X37.870 Y62.319 Z0.997 A0 B0 C25 ELX0.000 F1348.000 E=9.638
N506 X38.810 Y65.227 Z0.997 A0 B0 C25 ELX0.000 F1348.000 E=9.656
N508 X39.848 Y68.622 Z0.997 A0 B0 C25 ELX0.000 F1348.000 E=9.678
N510 X41.267 Y73.064 Z0.997 A0 B0 C25 ELX0.000 F1348.000 E=9.706
N512 X42.804 Y77.154 Z0.997 A0 B0 C25 ELX0.000 F1348.000 E=9.732
N514 X44.467 Y81.438 Z0.997 A0 B0 C25 ELX0.000 F1348.000 E=9.759
N516 X46.411 Y85.519 Z0.997 A0 B0 C25 ELX0.000 F1348.000 E=9.787
N518 X49.653 Y90.822 Z0.997 A0 B0 C25 ELX0.000 F1348.000 E=9.824
N520 X52.801 Y95.185 Z0.997 A0 B0 C25 ELX0.000 F1348.000 E=9.856
N522 X56.844 Y99.600 Z0.997 A0 B0 C25 ELX0.000 F1348.000 E=9.892
N524 X59.493 Y102.219 Z0.997 A0 B0 C25 ELX0.000 F1348.000 E=9.914
N526 X61.637 Y104.410 Z0.997 A0 B0 C25 ELX0.000 F1348.000 E=9.933
N528 X63.895 Y106.634 Z0.997 A0 B0 C25 ELX0.000 F1348.000 E=9.952
N530 X66.717 Y109.553 Z0.997 A0 B0 C25 ELX0.000 F1348.000 E=9.976
N532 X71.988 Y115.026 Z0.997 A0 B0 C25 ELX0.000 F1348.000 E=10.022
N534 X76.690 Y120.191 Z0.997 A0 B0 C25 ELX0.000 F1348.000 E=10.064
N536 X80.431 Y124.183 Z0.997 A0 B0 C25 ELX0.000 F1348.000 E=10.097
N538 X82.850 Y126.565 Z0.997 A0 B0 C25 ELX0.000 F1348.000 E=10.117
N540 X89.506 Y132.831 Z0.997 A0 B0 C25 ELX0.000 F1348.000 E=10.172
N542 X92.595 Y135.542 Z0.997 A0 B0 C25 ELX0.000 F1348.000 E=10.196
N544 X94.878 Y137.545 Z0.997 A0 B0 C25 ELX0.000 F1348.000 E=10.215
N546 X98.684 Y140.852 Z0.997 A0 B0 C25 ELX0.000 F1348.000 E=10.245
N548 X102.481 Y144.282 Z0.997 A0 B0 C25 ELX0.000 F1348.000 E=10.276
N550 X107.620 Y149.095 Z0.997 A0 B0 C25 ELX0.000 F1348.000 E=10.318
N552 X112.095 Y153.352 Z0.997 A0 B0 C25 ELX0.000 F1348.000 E=10.355
N554 X115.486 Y156.517 Z0.997 A0 B0 C25 ELX0.000 F1348.000 E=10.383
N556 X118.598 Y159.417 Z0.997 A0 B0 C25 ELX0.000 F1348.000 E=10.408
N558 X122.228 Y162.697 Z0.997 A0 B0 C25 ELX0.000 F1348.000 E=10.438
N560 X125.166 Y165.239 Z0.997 A0 B0 C25 ELX0.000 F1348.000 E=10.461
N562 X128.318 Y168.004 Z0.997 A0 B0 C25 ELX0.000 F1348.000 E=10.486
N564 X131.214 Y170.461 Z0.997 A0 B0 C25 ELX0.000 F1348.000 E=10.509
N566 X133.991 Y172.772 Z0.997 A0 B0 C25 ELX0.000 F1348.000 E=10.531
N568 X139.244 Y177.413 Z0.997 A0 B0 C25 ELX0.000 F1348.000 E=10.573
N570 X144.368 Y182.144 Z0.997 A0 B0 C25 ELX0.000 F1348.000 E=10.614
N572 X148.142 Y185.735 Z0.997 A0 B0 C25 ELX0.000 F1348.000 E=10.646
N574 X151.306 Y188.831 Z0.997 A0 B0 C25 ELX0.000 F1348.000 E=10.672
N576 X155.905 Y193.297 Z0.997 A0 B0 C25 ELX0.000 F1348.000 E=10.711
N578 X159.870 Y197.241 Z0.997 A0 B0 C25 ELX0.000 F1348.000 E=10.744
N580 X163.716 Y200.870 Z0.997 A0 B0 C25 ELX0.000 F1348.000 E=10.776
N582 X167.482 Y204.457 Z0.997 A0 B0 C25 ELX0.000 F1348.000 E=10.807
N584 X171.382 Y208.089 Z0.997 A0 B0 C25 ELX0.000 F1348.000 E=10.839
N586 X173.872 Y210.369 Z0.997 A0 B0 C25 ELX0.000 F1348.000 E=10.859
N588 X179.642 Y215.694 Z0.997 A0 B0 C25 ELX0.000 F1348.000 E=10.907
N590 X183.806 Y219.375 Z0.997 A0 B0 C25 ELX0.000 F1348.000 E=10.940
N592 X186.777 Y221.932 Z0.997 A0 B0 C25 ELX0.000 F1348.000 E=10.963
N594 X190.874 Y225.454 Z0.997 A0 B0 C25 ELX0.000 F1348.000 E=10.996
N596 X194.577 Y228.453 Z0.997 A0 B0 C25 ELX0.000 F1348.000 E=11.024
N598 X200.624 Y233.056 Z0.997 A0 B0 C25 ELX0.000 F1348.000 E=11.070
N600 X203.468 Y234.961 Z0.997 A0 B0 C25 ELX0.000 F1348.000 E=11.091
N602 X207.365 Y237.447 Z0.997 A0 B0 C25 ELX0.000 F1348.000 E=11.118
N604 X210.856 Y239.509 Z0.997 A0 B0 C25 ELX0.000 F1348.000 E=11.143
N606 X217.005 Y242.712 Z0.997 A0 B0 C25 ELX0.000 F1348.000 E=11.184
N608 X220.971 Y244.553 Z0.997 A0 B0 C25 ELX0.000 F1348.000 E=11.210
N610 X224.326 Y245.929 Z0.997 A0 B0 C25 ELX0.000 F1348.000 E=11.232
N612 X230.960 Y248.494 Z0.997 A0 B0 C25 ELX0.000 F1348.000 E=11.275
N614 X236.783 Y250.574 Z0.997 A0 B0 C25 ELX0.000 F1348.000 E=11.312
N616 X240.531 Y251.841 Z0.997 A0 B0 C25 ELX0.000 F1348.000 E=11.336
N618 X243.874 Y252.954 Z0.997 A0 B0 C25 ELX0.000 F1348.000 E=11.357
N620 X247.357 Y254.138 Z0.997 A0 B0 C25 ELX0.000 F1348.000 E=11.379
N622 X253.339 Y256.084 Z0.997 A0 B0 C25 ELX0.000 F1348.000 E=11.417
N624 X259.354 Y258.047 Z0.997 A0 B0 C25 ELX0.000 F1348.000 E=11.455
N626 X262.776 Y259.115 Z0.997 A0 B0 C25 ELX0.000 F1348.000 E=11.476
N628 X266.445 Y260.247 Z0.997 A0 B0 C25 ELX0.000 F1348.000 E=11.499
N630 X270.546 Y261.425 Z0.997 A0 B0 C25 ELX0.000 F1348.000 E=11.525
N632 X270.546 Y261.425 Z1.497 A0 B0 C25 ELX0.000 F1500.000 E=11.325; Retract
N634 X270.546 Y261.425 Z11.497 A0 B0 C25 ELX0.000 F1500.000; Departure
N636 X270.546 Y261.425 Z11.497 A0 B0 C25 ELX0.000 F1500.000 E 11.025; Retract
N638 X221.194 Y252.009 Z11.497 A0 B0 C25 ELX0.000 F1500.000; Apporach
N640 X221.194 Y252.009 Z0.997 A0 B0 C25 ELX0.000 F1500.000 E 12.225; Engage
N642 X215.577 Y249.691 Z0.997 A0 B0 C25 ELX0.000 F1348.000 E=12.261
N644 X211.487 Y247.799 Z0.997 A0 B0 C25 ELX0.000 F1348.000 E=12.288
N646 X206.361 Y244.984 Z0.997 A0 B0 C25 ELX0.000 F1348.000 E=12.323
N648 X203.592 Y243.336 Z0.997 A0 B0 C25 ELX0.000 F1348.000 E=12.343
N650 X200.254 Y241.160 Z0.997 A0 B0 C25 ELX0.000 F1348.000 E=12.367
N652 X196.254 Y238.368 Z0.997 A0 B0 C25 ELX0.000 F1348.000 E=12.396
N654 X192.117 Y235.085 Z0.997 A0 B0 C25 ELX0.000 F1348.000 E=12.428
N656 X188.408 Y232.136 Z0.997 A0 B0 C25 ELX0.000 F1348.000 E=12.456
N658 X186.041 Y230.154 Z0.997 A0 B0 C25 ELX0.000 F1348.000 E=12.475
N660 X182.999 Y227.424 Z0.997 A0 B0 C25 ELX0.000 F1348.000 E=12.499
N662 X178.665 Y223.605 Z0.997 A0 B0 C25 ELX0.000 F1348.000 E=12.534
N664 X175.314 Y220.698 Z0.997 A0 B0 C25 ELX0.000 F1348.000 E=12.560
N666 X169.029 Y215.080 Z0.997 A0 B0 C25 ELX0.000 F1348.000 E=12.611
N668 X163.398 Y209.859 Z0.997 A0 B0 C25 ELX0.000 F1348.000 E=12.657
N670 X158.390 Y205.030 Z0.997 A0 B0 C25 ELX0.000 F1348.000 E=12.699
N672 X154.446 Y201.169 Z0.997 A0 B0 C25 ELX0.000 F1348.000 E=12.732
N674 X151.399 Y198.161 Z0.997 A0 B0 C25 ELX0.000 F1348.000 E=12.758
N676 X146.004 Y192.859 Z0.997 A0 B0 C25 ELX0.000 F1348.000 E=12.803
N678 X142.597 Y189.620 Z0.997 A0 B0 C25 ELX0.000 F1348.000 E=12.831
N680 X140.335 Y187.570 Z0.997 A0 B0 C25 ELX0.000 F1348.000 E=12.849
N682 X137.774 Y185.273 Z0.997 A0 B0 C25 ELX0.000 F1348.000 E=12.870
N684 X133.960 Y182.167 Z0.997 A0 B0 C25 ELX0.000 F1348.000 E=12.900
N686 X129.557 Y178.606 Z0.997 A0 B0 C25 ELX0.000 F1348.000 E=12.934
N688 X121.324 Y172.051 Z0.997 A0 B0 C25 ELX0.000 F1348.000 E=12.997
N690 X116.780 Y168.130 Z0.997 A0 B0 C25 ELX0.000 F1348.000 E=13.033
N692 X116.780 Y168.130 Z1.497 A0 B0 C25 ELX0.000 F1500.000 E=12.833; Retract
N694 X116.780 Y168.130 Z11.497 A0 B0 C25 ELX0.000 F1500.000; Departure
N696 X116.780 Y168.130 Z11.497 A0 B0 C25 ELX0.000 F1500.000 E 12.533; Retract
N698 X202.118 Y182.348 Z11.497 A0 B0 C25 ELX0.000 F1500.000; Apporach
N700 X202.118 Y182.348 Z0.997 A0 B0 C25 ELX0.000 F1500.000 E 13.733; Engage
N702 X205.921 Y187.737 Z0.997 A0 B0 C25 ELX0.000 F1348.000 E=13.772
N704 X209.925 Y192.285 Z0.997 A0 B0 C25 ELX0.000 F1348.000 E=13.809
N706 X216.084 Y197.964 Z0.997 A0 B0 C25 ELX0.000 F1348.000 E=13.859
N708 X219.225 Y200.411 Z0.997 A0 B0 C25 ELX0.000 F1348.000 E=13.883
N710 X223.924 Y203.635 Z0.997 A0 B0 C25 ELX0.000 F1348.000 E=13.917
N712 X227.046 Y205.540 Z0.997 A0 B0 C25 ELX0.000 F1348.000 E=13.939
N714 X230.179 Y207.311 Z0.997 A0 B0 C25 ELX0.000 F1348.000 E=13.961
N716 X235.651 Y210.196 Z0.997 A0 B0 C25 ELX0.000 F1348.000 E=13.998
N718 X242.029 Y213.134 Z0.997 A0 B0 C25 ELX0.000 F1348.000 E=14.040
N720 X246.777 Y215.153 Z0.997 A0 B0 C25 ELX0.000 F1348.000 E=14.071
N722 X251.798 Y217.104 Z0.997 A0 B0 C25 ELX0.000 F1348.000 E=14.103
N724 X256.448 Y218.782 Z0.997 A0 B0 C25 ELX0.000 F1348.000 E=14.133
N726 X260.574 Y220.139 Z0.997 A0 B0 C25 ELX0.000 F1348.000 E=14.159
N728 X264.512 Y221.375 Z0.997 A0 B0 C25 ELX0.000 F1348.000 E=14.184
N730 X268.028 Y222.430 Z0.997 A0 B0 C25 ELX0.000 F1348.000 E=14.206
N732 X272.882 Y223.765 Z0.997 A0 B0 C25 ELX0.000 F1348.000 E=14.236
N734 X277.490 Y224.934 Z0.997 A0 B0 C25 ELX0.000 F1348.000 E=14.264
N736 X281.275 Y225.843 Z0.997 A0 B0 C25 ELX0.000 F1348.000 E=14.288
N738 X288.161 Y227.387 Z0.997 A0 B0 C25 ELX0.000 F1348.000 E=14.330
N740 X295.814 Y228.999 Z0.997 A0 B0 C25 ELX0.000 F1348.000 E=14.377
N742 X301.916 Y230.244 Z0.997 A0 B0 C25 ELX0.000 F1348.000 E=14.414
N744 X306.483 Y231.165 Z0.997 A0 B0 C25 ELX0.000 F1348.000 E=14.442
N746 X309.512 Y231.782 Z0.997 A0 B0 C25 ELX0.000 F1348.000 E=14.461
N748 X314.813 Y232.850 Z0.997 A0 B0 C25 ELX0.000 F1348.000 E=14.493
N750 X318.591 Y233.618 Z0.997 A0 B0 C25 ELX0.000 F1348.000 E=14.516
N752 X322.755 Y234.455 Z0.997 A0 B0 C25 ELX0.000 F1348.000 E=14.542
N754 X326.382 Y235.192 Z0.997 A0 B0 C25 ELX0.000 F1348.000 E=14.564
N756 X329.834 Y235.883 Z0.997 A0 B0 C25 ELX0.000 F1348.000 E=14.585
N758 X335.015 Y236.915 Z0.997 A0 B0 C25 ELX0.000 F1348.000 E=14.617
N760 X342.760 Y238.451 Z0.997 A0 B0 C25 ELX0.000 F1348.000 E=14.664
N762 X346.588 Y239.214 Z0.997 A0 B0 C25 ELX0.000 F1348.000 E=14.688
N764 X353.651 Y240.601 Z0.997 A0 B0 C25 ELX0.000 F1348.000 E=14.731
N766 X358.059 Y241.479 Z0.997 A0 B0 C25 ELX0.000 F1348.000 E=14.758
N768 X361.934 Y242.271 Z0.997 A0 B0 C25 ELX0.000 F1348.000 E=14.782
N770 X366.819 Y243.231 Z0.997 A0 B0 C25 ELX0.000 F1348.000 E=14.811
N772 X371.575 Y244.190 Z0.997 A0 B0 C25 ELX0.000 F1348.000 E=14.841
N774 X374.633 Y244.814 Z0.997 A0 B0 C25 ELX0.000 F1348.000 E=14.859
N776 X379.210 Y245.759 Z0.997 A0 B0 C25 ELX0.000 F1348.000 E=14.887
N778 X382.549 Y246.467 Z0.997 A0 B0 C25 ELX0.000 F1348.000 E=14.908
N780 X387.515 Y247.509 Z0.997 A0 B0 C25 ELX0.000 F1348.000 E=14.938
N782 X393.791 Y248.863 Z0.997 A0 B0 C25 ELX0.000 F1348.000 E=14.977
N784 X400.746 Y250.398 Z0.997 A0 B0 C25 ELX0.000 F1348.000 E=15.019
N786 X406.538 Y251.716 Z0.997 A0 B0 C25 ELX0.000 F1348.000 E=15.055
N788 X409.952 Y252.513 Z0.997 A0 B0 C25 ELX0.000 F1348.000 E=15.076
N790 X413.200 Y253.280 Z0.997 A0 B0 C25 ELX0.000 F1348.000 E=15.096
N792 X417.277 Y254.237 Z0.997 A0 B0 C25 ELX0.000 F1348.000 E=15.121
N794 X425.661 Y256.280 Z0.997 A0 B0 C25 ELX0.000 F1348.000 E=15.173
N796 X432.094 Y257.780 Z0.997 A0 B0 C25 ELX0.000 F1348.000 E=15.213
N798 X437.507 Y259.043 Z0.997 A0 B0 C25 ELX0.000 F1348.000 E=15.246
N800 X443.318 Y260.313 Z0.997 A0 B0 C25 ELX0.000 F1348.000 E=15.282
N802 X448.771 Y261.387 Z0.997 A0 B0 C25 ELX0.000 F1348.000 E=15.315
N804 X454.295 Y262.490 Z0.997 A0 B0 C25 ELX0.000 F1348.000 E=15.349
N806 X460.865 Y263.858 Z0.997 A0 B0 C25 ELX0.000 F1348.000 E=15.389
N808 X464.893 Y264.768 Z0.997 A0 B0 C25 ELX0.000 F1348.000 E=15.414
N810 X470.817 Y266.376 Z0.997 A0 B0 C25 ELX0.000 F1348.000 E=15.451
N812 X476.737 Y268.320 Z0.997 A0 B0 C25 ELX0.000 F1348.000 E=15.488
N814 X485.325 Y271.895 Z0.997 A0 B0 C25 ELX0.000 F1348.000 E=15.544
N816 X490.756 Y274.286 Z0.997 A0 B0 C25 ELX0.000 F1348.000 E=15.580
N818 X490.756 Y274.286 Z1.497 A0 B0 C25 ELX0.000 F1500.000 E=15.380; Retract
N820 X490.756 Y274.286 Z11.497 A0 B0 C25 ELX0.000 F1500.000; Departure
N822 X490.756 Y274.286 Z11.497 A0 B0 C25 ELX0.000 F1500.000 E 15.080; Retract
N824 X474.102 Y274.045 Z11.497 A0 B0 C25 ELX0.000 F1500.000; Apporach
N826 X474.102 Y274.045 Z0.997 A0 B0 C25 ELX0.000 F1500.000 E 16.280; Engage
N828 X465.742 Y271.494 Z0.997 A0 B0 C25 ELX0.000 F1348.000 E=16.332
N830 X459.771 Y269.968 Z0.997 A0 B0 C25 ELX0.000 F1348.000 E=16.369
N832 X453.568 Y268.610 Z0.997 A0 B0 C25 ELX0.000 F1348.000 E=16.407
N834 X446.626 Y267.190 Z0.997 A0 B0 C25 ELX0.000 F1348.000 E=16.450
N836 X440.806 Y265.970 Z0.997 A0 B0 C25 ELX0.000 F1348.000 E=16.485
N838 X435.204 Y264.735 Z0.997 A0 B0 C25 ELX0.000 F1348.000 E=16.520
N840 X431.631 Y263.914 Z0.997 A0 B0 C25 ELX0.000 F1348.000 E=16.542
N842 X427.285 Y262.892 Z0.997 A0 B0 C25 ELX0.000 F1348.000 E=16.568
N844 X424.045 Y262.120 Z0.997 A0 B0 C25 ELX0.000 F1348.000 E=16.588
N846 X420.489 Y261.261 Z0.997 A0 B0 C25 ELX0.000 F1348.000 E=16.610
N848 X415.475 Y260.041 Z0.997 A0 B0 C25 ELX0.000 F1348.000 E=16.641
N850 X410.966 Y258.959 Z0.997 A0 B0 C25 ELX0.000 F1348.000 E=16.669
N852 X405.930 Y257.777 Z0.997 A0 B0 C25 ELX0.000 F1348.000 E=16.700
N854 X401.694 Y256.790 Z0.997 A0 B0 C25 ELX0.000 F1348.000 E=16.726
N856 X394.886 Y255.263 Z0.997 A0 B0 C25 ELX0.000 F1348.000 E=16.768
N858 X388.924 Y253.969 Z0.997 A0 B0 C25 ELX0.000 F1348.000 E=16.805
N860 X381.627 Y252.437 Z0.997 A0 B0 C25 ELX0.000 F1348.000 E=16.850
N862 X377.001 Y251.506 Z0.997 A0 B0 C25 ELX0.000 F1348.000 E=16.878
N864 X370.129 Y250.119 Z0.997 A0 B0 C25 ELX0.000 F1348.000 E=16.920
N866 X363.471 Y248.805 Z0.997 A0 B0 C25 ELX0.000 F1348.000 E=16.961
N868 X359.273 Y247.996 Z0.997 A0 B0 C25 ELX0.000 F1348.000 E=16.986
N870 X355.019 Y247.139 Z0.997 A0 B0 C25 ELX0.000 F1348.000 E=17.012
N872 X350.837 Y246.303 Z0.997 A0 B0 C25 ELX0.000 F1348.000 E=17.038
N874 X346.541 Y245.435 Z0.997 A0 B0 C25 ELX0.000 F1348.000 E=17.064
N876 X339.794 Y244.078 Z0.997 A0 B0 C25 ELX0.000 F1348.000 E=17.106
N878 X334.127 Y242.905 Z0.997 A0 B0 C25 ELX0.000 F1348.000 E=17.140
N880 X328.666 Y241.797 Z0.997 A0 B0 C25 ELX0.000 F1348.000 E=17.174
N882 X324.306 Y240.918 Z0.997 A0 B0 C25 ELX0.000 F1348.000 E=17.200
N884 X318.263 Y239.710 Z0.997 A0 B0 C25 ELX0.000 F1348.000 E=17.237
N886 X315.312 Y239.117 Z0.997 A0 B0 C25 ELX0.000 F1348.000 E=17.255
N888 X312.252 Y238.505 Z0.997 A0 B0 C25 ELX0.000 F1348.000 E=17.274
N890 X307.070 Y237.479 Z0.997 A0 B0 C25 ELX0.000 F1348.000 E=17.306
N892 X303.475 Y236.762 Z0.997 A0 B0 C25 ELX0.000 F1348.000 E=17.328
N894 X299.221 Y235.909 Z0.997 A0 B0 C25 ELX0.000 F1348.000 E=17.354
N896 X292.178 Y234.459 Z0.997 A0 B0 C25 ELX0.000 F1348.000 E=17.397
N898 X286.879 Y233.317 Z0.997 A0 B0 C25 ELX0.000 F1348.000 E=17.430
N900 X279.995 Y231.751 Z0.997 A0 B0 C25 ELX0.000 F1348.000 E=17.472
N902 X275.102 Y230.551 Z0.997 A0 B0 C25 ELX0.000 F1348.000 E=17.502
N904 X271.901 Y229.728 Z0.997 A0 B0 C25 ELX0.000 F1348.000 E=17.522
N906 X267.151 Y228.427 Z0.997 A0 B0 C25 ELX0.000 F1348.000 E=17.551
N908 X260.768 Y226.531 Z0.997 A0 B0 C25 ELX0.000 F1348.000 E=17.591
N910 X254.348 Y224.431 Z0.997 A0 B0 C25 ELX0.000 F1348.000 E=17.632
N912 X248.750 Y222.414 Z0.997 A0 B0 C25 ELX0.000 F1348.000 E=17.668
N914 X245.048 Y220.998 Z0.997 A0 B0 C25 ELX0.000 F1348.000 E=17.691
N916 X240.375 Y219.075 Z0.997 A0 B0 C25 ELX0.000 F1348.000 E=17.722
N918 X235.568 Y216.941 Z0.997 A0 B0 C25 ELX0.000 F1348.000 E=17.753
N920 X232.391 Y215.435 Z0.997 A0 B0 C25 ELX0.000 F1348.000 E=17.774
N922 X228.032 Y213.210 Z0.997 A0 B0 C25 ELX0.000 F1348.000 E=17.804
N924 X223.421 Y210.637 Z0.997 A0 B0 C25 ELX0.000 F1348.000 E=17.835
N926 X216.605 Y206.324 Z0.997 A0 B0 C25 ELX0.000 F1348.000 E=17.884
N928 X210.297 Y201.633 Z0.997 A0 B0 C25 ELX0.000 F1348.000 E=17.931
N930 X205.893 Y197.784 Z0.997 A0 B0 C25 ELX0.000 F1348.000 E=17.966
N932 X201.023 Y193.112 Z0.997 A0 B0 C25 ELX0.000 F1348.000 E=18.007
N934 X197.894 Y189.565 Z0.997 A0 B0 C25 ELX0.000 F1348.000 E=18.035
N936 X194.346 Y185.713 Z0.997 A0 B0 C25 ELX0.000 F1348.000 E=18.066
N938 X190.757 Y181.546 Z0.997 A0 B0 C25 ELX0.000 F1348.000 E=18.099
N940 X188.126 Y178.628 Z0.997 A0 B0 C25 ELX0.000 F1348.000 E=18.123
N942 X185.776 Y175.962 Z0.997 A0 B0 C25 ELX0.000 F1348.000 E=18.144
N944 X183.668 Y173.690 Z0.997 A0 B0 C25 ELX0.000 F1348.000 E=18.163
N946 X180.897 Y171.241 Z0.997 A0 B0 C25 ELX0.000 F1348.000 E=18.185
N948 X176.966 Y167.754 Z0.997 A0 B0 C25 ELX0.000 F1348.000 E=18.217
N950 X173.949 Y165.394 Z0.997 A0 B0 C25 ELX0.000 F1348.000 E=18.240
N952 X170.173 Y162.672 Z0.997 A0 B0 C25 ELX0.000 F1348.000 E=18.268
N954 X165.672 Y158.654 Z0.997 A0 B0 C25 ELX0.000 F1348.000 E=18.304
N956 X162.090 Y155.810 Z0.997 A0 B0 C25 ELX0.000 F1348.000 E=18.331
N958 X157.087 Y151.159 Z0.997 A0 B0 C25 ELX0.000 F1348.000 E=18.372
N960 X151.596 Y145.492 Z0.997 A0 B0 C25 ELX0.000 F1348.000 E=18.419
N962 X147.662 Y141.240 Z0.997 A0 B0 C25 ELX0.000 F1348.000 E=18.454
N964 X145.540 Y139.076 Z0.997 A0 B0 C25 ELX0.000 F1348.000 E=18.472
N966 X141.022 Y134.499 Z0.997 A0 B0 C25 ELX0.000 F1348.000 E=18.511
N968 X135.288 Y129.123 Z0.997 A0 B0 C25 ELX0.000 F1348.000 E=18.558
N970 X129.395 Y123.874 Z0.997 A0 B0 C25 ELX0.000 F1348.000 E=18.606
N972 X124.629 Y119.547 Z0.997 A0 B0 C25 ELX0.000 F1348.000 E=18.644
N974 X121.341 Y116.323 Z0.997 A0 B0 C25 ELX0.000 F1348.000 E=18.672
N976 X117.498 Y112.472 Z0.997 A0 B0 C25 ELX0.000 F1348.000 E=18.704
N978 X114.055 Y108.686 Z0.997 A0 B0 C25 ELX0.000 F1348.000 E=18.735
N980 X111.837 Y106.290 Z0.997 A0 B0 C25 ELX0.000 F1348.000 E=18.755
N982 X109.206 Y103.365 Z0.997 A0 B0 C25 ELX0.000 F1348.000 E=18.778
N984 X106.580 Y100.398 Z0.997 A0 B0 C25 ELX0.000 F1348.000 E=18.802
N986 X103.885 Y97.678 Z0.997 A0 B0 C25 ELX0.000 F1348.000 E=18.825
N988 X100.836 Y94.697 Z0.997 A0 B0 C25 ELX0.000 F1348.000 E=18.851
N990 X96.470 Y90.753 Z0.997 A0 B0 C25 ELX0.000 F1348.000 E=18.886
N992 X92.444 Y86.940 Z0.997 A0 B0 C25 ELX0.000 F1348.000 E=18.919
N994 X89.003 Y84.303 Z0.997 A0 B0 C25 ELX0.000 F1348.000 E=18.945
N996 X84.456 Y80.296 Z0.997 A0 B0 C25 ELX0.000 F1348.000 E=18.982
N998 X81.898 Y77.242 Z0.997 A0 B0 C25 ELX0.000 F1348.000 E=19.006
N1000 X78.713 Y72.744 Z0.997 A0 B0 C25 ELX0.000 F1348.000 E=19.039
N1002 X77.270 Y69.372 Z0.997 A0 B0 C25 ELX0.000 F1348.000 E=19.061
N1004 X78.090 Y64.130 Z0.997 A0 B0 C25 ELX0.000 F1348.000 E=19.092
N1006 X82.271 Y60.855 Z0.997 A0 B0 C25 ELX0.000 F1348.000 E=19.124
N1008 X86.885 Y59.320 Z0.997 A0 B0 C25 ELX0.000 F1348.000 E=19.153
N1010 X92.884 Y58.340 Z0.997 A0 B0 C25 ELX0.000 F1348.000 E=19.190
N1012 X102.167 Y57.868 Z0.997 A0 B0 C25 ELX0.000 F1348.000 E=19.246
N1014 X105.441 Y57.825 Z0.997 A0 B0 C25 ELX0.000 F1348.000 E=19.265
N1016 X111.616 Y57.500 Z0.997 A0 B0 C25 ELX0.000 F1348.000 E=19.302
N1018 X117.924 Y57.331 Z0.997 A0 B0 C25 ELX0.000 F1348.000 E=19.340
N1020 X124.286 Y56.903 Z0.997 A0 B0 C25 ELX0.000 F1348.000 E=19.379
N1022 X132.760 Y56.437 Z0.997 A0 B0 C25 ELX0.000 F1348.000 E=19.429
N1024 X139.077 Y56.084 Z0.997 A0 B0 C25 ELX0.000 F1348.000 E=19.467
N1026 X144.976 Y55.736 Z0.997 A0 B0 C25 ELX0.000 F1348.000 E=19.503
N1028 X152.673 Y55.281 Z0.997 A0 B0 C25 ELX0.000 F1348.000 E=19.549
N1030 X157.057 Y55.066 Z0.997 A0 B0 C25 ELX0.000 F1348.000 E=19.576
N1032 X163.558 Y54.691 Z0.997 A0 B0 C25 ELX0.000 F1348.000 E=19.615
N1034 X168.507 Y54.397 Z0.997 A0 B0 C25 ELX0.000 F1348.000 E=19.644
N1036 X171.942 Y54.210 Z0.997 A0 B0 C25 ELX0.000 F1348.000 E=19.665
N1038 X174.991 Y54.052 Z0.997 A0 B0 C25 ELX0.000 F1348.000 E=19.683
N1040 X180.031 Y53.816 Z0.997 A0 B0 C25 ELX0.000 F1348.000 E=19.714
N1042 X186.309 Y53.450 Z0.997 A0 B0 C25 ELX0.000 F1348.000 E=19.751
N1044 X190.295 Y53.258 Z0.997 A0 B0 C25 ELX0.000 F1348.000 E=19.775
N1046 X195.834 Y52.967 Z0.997 A0 B0 C25 ELX0.000 F1348.000 E=19.809
N1048 X199.187 Y52.811 Z0.997 A0 B0 C25 ELX0.000 F1348.000 E=19.829
N1050 X202.805 Y52.621 Z0.997 A0 B0 C25 ELX0.000 F1348.000 E=19.850
N1052 X206.858 Y52.452 Z0.997 A0 B0 C25 ELX0.000 F1348.000 E=19.875
N1054 X213.340 Y52.148 Z0.997 A0 B0 C25 ELX0.000 F1348.000 E=19.914
N1056 X219.364 Y51.892 Z0.997 A0 B0 C25 ELX0.000 F1348.000 E=19.950
N1058 X222.754 Y51.749 Z0.997 A0 B0 C25 ELX0.000 F1348.000 E=19.970
N1060 X229.780 Y51.446 Z0.997 A0 B0 C25 ELX0.000 F1348.000 E=20.012
N1062 X235.959 Y51.172 Z0.997 A0 B0 C25 ELX0.000 F1348.000 E=20.050
N1064 X240.615 Y50.941 Z0.997 A0 B0 C25 ELX0.000 F1348.000 E=20.077
N1066 X244.889 Y50.731 Z0.997 A0 B0 C25 ELX0.000 F1348.000 E=20.103
N1068 X250.584 Y50.426 Z0.997 A0 B0 C25 ELX0.000 F1348.000 E=20.137
N1070 X253.662 Y50.260 Z0.997 A0 B0 C25 ELX0.000 F1348.000 E=20.156
N1072 X257.846 Y50.036 Z0.997 A0 B0 C25 ELX0.000 F1348.000 E=20.181
N1074 X262.814 Y49.776 Z0.997 A0 B0 C25 ELX0.000 F1348.000 E=20.211
N1076 X269.239 Y49.436 Z0.997 A0 B0 C25 ELX0.000 F1348.000 E=20.249
N1078 X276.584 Y49.048 Z0.997 A0 B0 C25 ELX0.000 F1348.000 E=20.294
N1080 X283.884 Y48.729 Z0.997 A0 B0 C25 ELX0.000 F1348.000 E=20.337
N1082 X288.431 Y48.546 Z0.997 A0 B0 C25 ELX0.000 F1348.000 E=20.365
N1084 X291.734 Y48.349 Z0.997 A0 B0 C25 ELX0.000 F1348.000 E=20.385
N1086 X298.542 Y47.981 Z0.997 A0 B0 C25 ELX0.000 F1348.000 E=20.425
N1088 X303.548 Y47.761 Z0.997 A0 B0 C25 ELX0.000 F1348.000 E=20.456
N1090 X307.632 Y47.516 Z0.997 A0 B0 C25 ELX0.000 F1348.000 E=20.480
N1092 X311.196 Y47.261 Z0.997 A0 B0 C25 ELX0.000 F1348.000 E=20.502
N1094 X314.934 Y47.075 Z0.997 A0 B0 C25 ELX0.000 F1348.000 E=20.524
N1096 X319.879 Y46.690 Z0.997 A0 B0 C25 ELX0.000 F1348.000 E=20.554
N1098 X325.993 Y46.185 Z0.997 A0 B0 C25 ELX0.000 F1348.000 E=20.591
N1100 X333.438 Y45.432 Z0.997 A0 B0 C25 ELX0.000 F1348.000 E=20.635
N1102 X339.834 Y44.652 Z0.997 A0 B0 C25 ELX0.000 F1348.000 E=20.674
N1104 X345.238 Y43.911 Z0.997 A0 B0 C25 ELX0.000 F1348.000 E=20.707
N1106 X349.976 Y43.261 Z0.997 A0 B0 C25 ELX0.000 F1348.000 E=20.736
N1108 X357.736 Y41.979 Z0.997 A0 B0 C25 ELX0.000 F1348.000 E=20.783
N1110 X361.814 Y41.360 Z0.997 A0 B0 C25 ELX0.000 F1348.000 E=20.807
N1112 X366.649 Y40.598 Z0.997 A0 B0 C25 ELX0.000 F1348.000 E=20.837
N1114 X370.720 Y39.916 Z0.997 A0 B0 C25 ELX0.000 F1348.000 E=20.862
N1116 X375.546 Y39.012 Z0.997 A0 B0 C25 ELX0.000 F1348.000 E=20.891
N1118 X380.363 Y38.190 Z0.997 A0 B0 C25 ELX0.000 F1348.000 E=20.920
N1120 X386.183 Y37.094 Z0.997 A0 B0 C25 ELX0.000 F1348.000 E=20.956
N1122 X391.121 Y36.196 Z0.997 A0 B0 C25 ELX0.000 F1348.000 E=20.986
N1124 X395.217 Y35.506 Z0.997 A0 B0 C25 ELX0.000 F1348.000 E=21.011
N1126 X403.515 Y34.286 Z0.997 A0 B0 C25 ELX0.000 F1348.000 E=21.061
N1128 X403.515 Y34.286 Z1.497 A0 B0 C25 ELX0.000 F1500.000 E=20.861; Retract
N1130 X403.515 Y34.286 Z11.497 A0 B0 C25 ELX0.000 F1500.000; Departure
N1132 X403.515 Y34.286 Z11.497 A0 B0 C25 ELX0.000 F1500.000 E 20.561; Retract
N1134 X366.269 Y34.286 Z11.497 A0 B0 C25 ELX0.000 F1500.000; Apporach
N1136 X366.269 Y34.286 Z0.997 A0 B0 C25 ELX0.000 F1500.000 E 21.761; Engage
N1138 X362.867 Y34.807 Z0.997 A0 B0 C25 ELX0.000 F1348.000 E=21.782
N1140 X356.262 Y35.744 Z0.997 A0 B0 C25 ELX0.000 F1348.000 E=21.822
N1142 X352.486 Y36.275 Z0.997 A0 B0 C25 ELX0.000 F1348.000 E=21.845
N1144 X347.577 Y36.907 Z0.997 A0 B0 C25 ELX0.000 F1348.000 E=21.875
N1146 X343.497 Y37.372 Z0.997 A0 B0 C25 ELX0.000 F1348.000 E=21.899
N1148 X337.385 Y38.145 Z0.997 A0 B0 C25 ELX0.000 F1348.000 E=21.936
N1150 X333.582 Y38.528 Z0.997 A0 B0 C25 ELX0.000 F1348.000 E=21.959
N1152 X329.249 Y38.951 Z0.997 A0 B0 C25 ELX0.000 F1348.000 E=21.985
N1154 X324.179 Y39.463 Z0.997 A0 B0 C25 ELX0.000 F1348.000 E=22.016
N1156 X317.226 Y40.119 Z0.997 A0 B0 C25 ELX0.000 F1348.000 E=22.058
N1158 X312.195 Y40.566 Z0.997 A0 B0 C25 ELX0.000 F1348.000 E=22.088
N1160 X307.834 Y40.918 Z0.997 A0 B0 C25 ELX0.000 F1348.000 E=22.114
N1162 X304.741 Y41.141 Z0.997 A0 B0 C25 ELX0.000 F1348.000 E=22.133
N1164 X300.127 Y41.490 Z0.997 A0 B0 C25 ELX0.000 F1348.000 E=22.161
N1166 X297.011 Y41.728 Z0.997 A0 B0 C25 ELX0.000 F1348.000 E=22.179
N1168 X290.152 Y42.194 Z0.997 A0 B0 C25 ELX0.000 F1348.000 E=22.221
N1170 X283.565 Y42.593 Z0.997 A0 B0 C25 ELX0.000 F1348.000 E=22.260
N1172 X278.921 Y42.840 Z0.997 A0 B0 C25 ELX0.000 F1348.000 E=22.288
N1174 X272.829 Y43.197 Z0.997 A0 B0 C25 ELX0.000 F1348.000 E=22.325
N1176 X268.725 Y43.366 Z0.997 A0 B0 C25 ELX0.000 F1348.000 E=22.349
N1178 X263.399 Y43.630 Z0.997 A0 B0 C25 ELX0.000 F1348.000 E=22.381
N1180 X257.678 Y43.978 Z0.997 A0 B0 C25 ELX0.000 F1348.000 E=22.416
N1182 X252.120 Y44.203 Z0.997 A0 B0 C25 ELX0.000 F1348.000 E=22.449
N1184 X248.738 Y44.392 Z0.997 A0 B0 C25 ELX0.000 F1348.000 E=22.469
N1186 X243.216 Y44.675 Z0.997 A0 B0 C25 ELX0.000 F1348.000 E=22.503
N1188 X240.170 Y44.801 Z0.997 A0 B0 C25 ELX0.000 F1348.000 E=22.521
N1190 X233.854 Y45.087 Z0.997 A0 B0 C25 ELX0.000 F1348.000 E=22.559
N1192 X230.185 Y45.300 Z0.997 A0 B0 C25 ELX0.000 F1348.000 E=22.581
N1194 X224.779 Y45.542 Z0.997 A0 B0 C25 ELX0.000 F1348.000 E=22.613
N1196 X220.856 Y45.668 Z0.997 A0 B0 C25 ELX0.000 F1348.000 E=22.637
N1198 X216.080 Y45.918 Z0.997 A0 B0 C25 ELX0.000 F1348.000 E=22.666
N1200 X210.843 Y46.156 Z0.997 A0 B0 C25 ELX0.000 F1348.000 E=22.697
N1202 X205.299 Y46.432 Z0.997 A0 B0 C25 ELX0.000 F1348.000 E=22.730
N1204 X200.847 Y46.656 Z0.997 A0 B0 C25 ELX0.000 F1348.000 E=22.757
N1206 X197.466 Y46.835 Z0.997 A0 B0 C25 ELX0.000 F1348.000 E=22.777
N1208 X193.475 Y47.052 Z0.997 A0 B0 C25 ELX0.000 F1348.000 E=22.801
N1210 X186.355 Y47.388 Z0.997 A0 B0 C25 ELX0.000 F1348.000 E=22.844
N1212 X181.143 Y47.644 Z0.997 A0 B0 C25 ELX0.000 F1348.000 E=22.875
N1214 X175.958 Y47.924 Z0.997 A0 B0 C25 ELX0.000 F1348.000 E=22.907
N1216 X172.645 Y48.089 Z0.997 A0 B0 C25 ELX0.000 F1348.000 E=22.927
N1218 X167.817 Y48.298 Z0.997 A0 B0 C25 ELX0.000 F1348.000 E=22.956
N1220 X164.213 Y48.442 Z0.997 A0 B0 C25 ELX0.000 F1348.000 E=22.977
N1222 X158.588 Y48.717 Z0.997 A0 B0 C25 ELX0.000 F1348.000 E=23.011
N1224 X155.574 Y48.825 Z0.997 A0 B0 C25 ELX0.000 F1348.000 E=23.029
N1226 X151.764 Y49.036 Z0.997 A0 B0 C25 ELX0.000 F1348.000 E=23.052
N1228 X147.472 Y49.238 Z0.997 A0 B0 C25 ELX0.000 F1348.000 E=23.078
N1230 X144.371 Y49.430 Z0.997 A0 B0 C25 ELX0.000 F1348.000 E=23.096
N1232 X138.614 Y49.777 Z0.997 A0 B0 C25 ELX0.000 F1348.000 E=23.131
N1234 X133.528 Y50.119 Z0.997 A0 B0 C25 ELX0.000 F1348.000 E=23.162
N1236 X129.561 Y50.380 Z0.997 A0 B0 C25 ELX0.000 F1348.000 E=23.185
N1238 X124.068 Y50.750 Z0.997 A0 B0 C25 ELX0.000 F1348.000 E=23.218
N1240 X120.841 Y50.936 Z0.997 A0 B0 C25 ELX0.000 F1348.000 E=23.238
N1242 X116.655 Y51.155 Z0.997 A0 B0 C25 ELX0.000 F1348.000 E=23.263
N1244 X112.301 Y51.324 Z0.997 A0 B0 C25 ELX0.000 F1348.000 E=23.289
N1246 X108.510 Y51.413 Z0.997 A0 B0 C25 ELX0.000 F1348.000 E=23.312
N1248 X103.045 Y51.462 Z0.997 A0 B0 C25 ELX0.000 F1348.000 E=23.345
N1250 X99.336 Y51.490 Z0.997 A0 B0 C25 ELX0.000 F1348.000 E=23.367
N1252 X96.093 Y51.365 Z0.997 A0 B0 C25 ELX0.000 F1348.000 E=23.386
N1254 X92.976 Y51.349 Z0.997 A0 B0 C25 ELX0.000 F1348.000 E=23.405
N1256 X88.017 Y51.352 Z0.997 A0 B0 C25 ELX0.000 F1348.000 E=23.435
N1258 X84.721 Y51.351 Z0.997 A0 B0 C25 ELX0.000 F1348.000 E=23.455
N1260 X79.125 Y51.904 Z0.997 A0 B0 C25 ELX0.000 F1348.000 E=23.488
N1262 X73.920 Y53.167 Z0.997 A0 B0 C25 ELX0.000 F1348.000 E=23.521
N1264 X67.558 Y58.251 Z0.997 A0 B0 C25 ELX0.000 F1348.000 E=23.569
N1266 X66.368 Y64.507 Z0.997 A0 B0 C25 ELX0.000 F1348.000 E=23.608
N1268 X67.338 Y69.625 Z0.997 A0 B0 C25 ELX0.000 F1348.000 E=23.639
N1270 X70.111 Y75.273 Z0.997 A0 B0 C25 ELX0.000 F1348.000 E=23.677
N1272 X74.622 Y80.944 Z0.997 A0 B0 C25 ELX0.000 F1348.000 E=23.720
N1274 X79.718 Y85.662 Z0.997 A0 B0 C25 ELX0.000 F1348.000 E=23.762
N1276 X83.792 Y88.874 Z0.997 A0 B0 C25 ELX0.000 F1348.000 E=23.793
N1278 X86.115 Y90.793 Z0.997 A0 B0 C25 ELX0.000 F1348.000 E=23.811
N1280 X90.070 Y93.916 Z0.997 A0 B0 C25 ELX0.000 F1348.000 E=23.841
N1282 X93.519 Y96.882 Z0.997 A0 B0 C25 ELX0.000 F1348.000 E=23.868
N1284 X97.999 Y100.919 Z0.997 A0 B0 C25 ELX0.000 F1348.000 E=23.905
N1286 X101.601 Y104.498 Z0.997 A0 B0 C25 ELX0.000 F1348.000 E=23.935
N1288 X104.100 Y107.151 Z0.997 A0 B0 C25 ELX0.000 F1348.000 E=23.957
N1290 X106.214 Y109.404 Z0.997 A0 B0 C25 ELX0.000 F1348.000 E=23.976
N1292 X108.915 Y112.336 Z0.997 A0 B0 C25 ELX0.000 F1348.000 E=23.999
N1294 X111.593 Y115.163 Z0.997 A0 B0 C25 ELX0.000 F1348.000 E=24.023
N1296 X115.931 Y119.602 Z0.997 A0 B0 C25 ELX0.000 F1348.000 E=24.060
N1298 X119.958 Y123.418 Z0.997 A0 B0 C25 ELX0.000 F1348.000 E=24.093
N1300 X124.404 Y127.496 Z0.997 A0 B0 C25 ELX0.000 F1348.000 E=24.130
N1302 X127.565 Y130.318 Z0.997 A0 B0 C25 ELX0.000 F1348.000 E=24.155
N1304 X132.773 Y135.024 Z0.997 A0 B0 C25 ELX0.000 F1348.000 E=24.197
N1306 X136.318 Y138.412 Z0.997 A0 B0 C25 ELX0.000 F1348.000 E=24.227
N1308 X142.350 Y144.587 Z0.997 A0 B0 C25 ELX0.000 F1348.000 E=24.278
N1310 X146.120 Y148.685 Z0.997 A0 B0 C25 ELX0.000 F1348.000 E=24.312
N1312 X148.730 Y151.520 Z0.997 A0 B0 C25 ELX0.000 F1348.000 E=24.335
N1314 X152.563 Y155.606 Z0.997 A0 B0 C25 ELX0.000 F1348.000 E=24.368
N1316 X157.225 Y160.357 Z0.997 A0 B0 C25 ELX0.000 F1348.000 E=24.408
N1318 X160.723 Y163.718 Z0.997 A0 B0 C25 ELX0.000 F1348.000 E=24.438
N1320 X165.574 Y168.284 Z0.997 A0 B0 C25 ELX0.000 F1348.000 E=24.477
N1322 X170.214 Y172.473 Z0.997 A0 B0 C25 ELX0.000 F1348.000 E=24.515
N1324 X173.518 Y175.388 Z0.997 A0 B0 C25 ELX0.000 F1348.000 E=24.541
N1326 X176.404 Y178.041 Z0.997 A0 B0 C25 ELX0.000 F1348.000 E=24.565
N1328 X178.857 Y180.149 Z0.997 A0 B0 C25 ELX0.000 F1348.000 E=24.584
N1330 X181.533 Y182.902 Z0.997 A0 B0 C25 ELX0.000 F1348.000 E=24.607
N1332 X184.470 Y185.864 Z0.997 A0 B0 C25 ELX0.000 F1348.000 E=24.632
N1334 X189.506 Y190.926 Z0.997 A0 B0 C25 ELX0.000 F1348.000 E=24.675
N1336 X193.139 Y194.466 Z0.997 A0 B0 C25 ELX0.000 F1348.000 E=24.706
N1338 X199.272 Y200.433 Z0.997 A0 B0 C25 ELX0.000 F1348.000 E=24.757
N1340 X203.793 Y204.392 Z0.997 A0 B0 C25 ELX0.000 F1348.000 E=24.793
N1342 X209.115 Y208.576 Z0.997 A0 B0 C25 ELX0.000 F1348.000 E=24.834
N1344 X212.261 Y210.821 Z0.997 A0 B0 C25 ELX0.000 F1348.000 E=24.857
N1346 X216.217 Y213.459 Z0.997 A0 B0 C25 ELX0.000 F1348.000 E=24.885
N1348 X218.903 Y215.142 Z0.997 A0 B0 C25 ELX0.000 F1348.000 E=24.904
N1350 X221.993 Y216.917 Z0.997 A0 B0 C25 ELX0.000 F1348.000 E=24.926
N1352 X224.911 Y218.518 Z0.997 A0 B0 C25 ELX0.000 F1348.000 E=24.946
N1354 X227.592 Y219.904 Z0.997 A0 B0 C25 ELX0.000 F1348.000 E=24.964
N1356 X232.026 Y222.032 Z0.997 A0 B0 C25 ELX0.000 F1348.000 E=24.993
N1358 X235.046 Y223.414 Z0.997 A0 B0 C25 ELX0.000 F1348.000 E=25.013
N1360 X239.086 Y225.140 Z0.997 A0 B0 C25 ELX0.000 F1348.000 E=25.040
N1362 X244.218 Y227.175 Z0.997 A0 B0 C25 ELX0.000 F1348.000 E=25.073
N1364 X251.736 Y229.901 Z0.997 A0 B0 C25 ELX0.000 F1348.000 E=25.121
N1366 X254.879 Y230.957 Z0.997 A0 B0 C25 ELX0.000 F1348.000 E=25.141
N1368 X259.810 Y232.519 Z0.997 A0 B0 C25 ELX0.000 F1348.000 E=25.172
N1370 X264.221 Y233.828 Z0.997 A0 B0 C25 ELX0.000 F1348.000 E=25.199
N1372 X269.316 Y235.259 Z0.997 A0 B0 C25 ELX0.000 F1348.000 E=25.231
N1374 X273.995 Y236.482 Z0.997 A0 B0 C25 ELX0.000 F1348.000 E=25.260
N1376 X279.713 Y237.891 Z0.997 A0 B0 C25 ELX0.000 F1348.000 E=25.295
N1378 X285.859 Y239.286 Z0.997 A0 B0 C25 ELX0.000 F1348.000 E=25.333
N1380 X292.095 Y240.621 Z0.997 A0 B0 C25 ELX0.000 F1348.000 E=25.372
N1382 X301.053 Y242.434 Z0.997 A0 B0 C25 ELX0.000 F1348.000 E=25.426
N1384 X307.733 Y243.748 Z0.997 A0 B0 C25 ELX0.000 F1348.000 E=25.467
N1386 X312.562 Y244.706 Z0.997 A0 B0 C25 ELX0.000 F1348.000 E=25.497
N1388 X319.151 Y246.039 Z0.997 A0 B0 C25 ELX0.000 F1348.000 E=25.537
N1390 X323.319 Y246.915 Z0.997 A0 B0 C25 ELX0.000 F1348.000 E=25.563
N1392 X328.040 Y247.887 Z0.997 A0 B0 C25 ELX0.000 F1348.000 E=25.592
N1394 X333.690 Y249.117 Z0.997 A0 B0 C25 ELX0.000 F1348.000 E=25.626
N1396 X338.351 Y250.104 Z0.997 A0 B0 C25 ELX0.000 F1348.000 E=25.655
N1398 X342.262 Y250.921 Z0.997 A0 B0 C25 ELX0.000 F1348.000 E=25.679
N1400 X346.985 Y251.920 Z0.997 A0 B0 C25 ELX0.000 F1348.000 E=25.708
N1402 X351.283 Y252.789 Z0.997 A0 B0 C25 ELX0.000 F1348.000 E=25.734
N1404 X356.256 Y253.775 Z0.997 A0 B0 C25 ELX0.000 F1348.000 E=25.764
N1406 X360.166 Y254.525 Z0.997 A0 B0 C25 ELX0.000 F1348.000 E=25.788
N1408 X365.985 Y255.639 Z0.997 A0 B0 C25 ELX0.000 F1348.000 E=25.824
N1410 X371.410 Y256.672 Z0.997 A0 B0 C25 ELX0.000 F1348.000 E=25.857
N1412 X377.526 Y257.845 Z0.997 A0 B0 C25 ELX0.000 F1348.000 E=25.894
N1414 X383.045 Y258.945 Z0.997 A0 B0 C25 ELX0.000 F1348.000 E=25.928
N1416 X387.112 Y259.784 Z0.997 A0 B0 C25 ELX0.000 F1348.000 E=25.953
N1418 X391.163 Y260.642 Z0.997 A0 B0 C25 ELX0.000 F1348.000 E=25.978
N1420 X396.352 Y261.781 Z0.997 A0 B0 C25 ELX0.000 F1348.000 E=26.010
N1422 X399.522 Y262.496 Z0.997 A0 B0 C25 ELX0.000 F1348.000 E=26.029
N1424 X405.735 Y263.937 Z0.997 A0 B0 C25 ELX0.000 F1348.000 E=26.068
N1426 X408.735 Y264.650 Z0.997 A0 B0 C25 ELX0.000 F1348.000 E=26.086
N1428 X412.776 Y265.608 Z0.997 A0 B0 C25 ELX0.000 F1348.000 E=26.111
N1430 X418.226 Y266.935 Z0.997 A0 B0 C25 ELX0.000 F1348.000 E=26.145
N1432 X422.913 Y268.058 Z0.997 A0 B0 C25 ELX0.000 F1348.000 E=26.174
N1434 X427.795 Y269.200 Z0.997 A0 B0 C25 ELX0.000 F1348.000 E=26.204
N1436 X430.809 Y269.917 Z0.997 A0 B0 C25 ELX0.000 F1348.000 E=26.222
N1438 X436.606 Y271.226 Z0.997 A0 B0 C25 ELX0.000 F1348.000 E=26.258
N1440 X440.638 Y272.113 Z0.997 A0 B0 C25 ELX0.000 F1348.000 E=26.283
N1442 X450.154 Y274.173 Z0.997 A0 B0 C25 ELX0.000 F1348.000 E=26.341
N1444 X450.154 Y274.173 Z1.497 A0 B0 C25 ELX0.000 F1500.000 E=26.141; Retract
N1446 X450.154 Y274.173 Z11.497 A0 B0 C25 ELX0.000 F1500.000; Departure
N1448 X450.154 Y274.173 Z11.497 A0 B0 C25 ELX0.000 F1500.000 E 25.841; Retract
N1450 X422.542 Y274.286 Z11.497 A0 B0 C25 ELX0.000 F1500.000; Apporach
N1452 X422.542 Y274.286 Z0.997 A0 B0 C25 ELX0.000 F1500.000 E 27.041; Engage
N1454 X418.105 Y273.245 Z0.997 A0 B0 C25 ELX0.000 F1348.000 E=27.068
N1456 X413.497 Y272.156 Z0.997 A0 B0 C25 ELX0.000 F1348.000 E=27.097
N1458 X409.229 Y271.118 Z0.997 A0 B0 C25 ELX0.000 F1348.000 E=27.123
N1460 X403.573 Y269.744 Z0.997 A0 B0 C25 ELX0.000 F1348.000 E=27.158
N1462 X397.853 Y268.426 Z0.997 A0 B0 C25 ELX0.000 F1348.000 E=27.193
N1464 X391.533 Y267.039 Z0.997 A0 B0 C25 ELX0.000 F1348.000 E=27.232
N1466 X387.337 Y266.125 Z0.997 A0 B0 C25 ELX0.000 F1348.000 E=27.258
N1468 X381.153 Y264.865 Z0.997 A0 B0 C25 ELX0.000 F1348.000 E=27.296
N1470 X376.588 Y263.997 Z0.997 A0 B0 C25 ELX0.000 F1348.000 E=27.324
N1472 X370.680 Y262.913 Z0.997 A0 B0 C25 ELX0.000 F1348.000 E=27.360
N1474 X366.236 Y262.122 Z0.997 A0 B0 C25 ELX0.000 F1348.000 E=27.387
N1476 X360.774 Y261.135 Z0.997 A0 B0 C25 ELX0.000 F1348.000 E=27.420
N1478 X356.073 Y260.274 Z0.997 A0 B0 C25 ELX0.000 F1348.000 E=27.449
N1480 X350.976 Y259.306 Z0.997 A0 B0 C25 ELX0.000 F1348.000 E=27.480
N1482 X347.215 Y258.525 Z0.997 A0 B0 C25 ELX0.000 F1348.000 E=27.503
N1484 X343.483 Y257.740 Z0.997 A0 B0 C25 ELX0.000 F1348.000 E=27.526
N1486 X339.522 Y256.851 Z0.997 A0 B0 C25 ELX0.000 F1348.000 E=27.550
N1488 X335.816 Y256.025 Z0.997 A0 B0 C25 ELX0.000 F1348.000 E=27.573
N1490 X328.801 Y254.411 Z0.997 A0 B0 C25 ELX0.000 F1348.000 E=27.616
N1492 X324.934 Y253.564 Z0.997 A0 B0 C25 ELX0.000 F1348.000 E=27.640
N1494 X320.897 Y252.645 Z0.997 A0 B0 C25 ELX0.000 F1348.000 E=27.665
N1496 X317.423 Y251.906 Z0.997 A0 B0 C25 ELX0.000 F1348.000 E=27.686
N1498 X314.468 Y251.297 Z0.997 A0 B0 C25 ELX0.000 F1348.000 E=27.704
N1500 X310.415 Y250.438 Z0.997 A0 B0 C25 ELX0.000 F1348.000 E=27.729
N1502 X306.165 Y249.592 Z0.997 A0 B0 C25 ELX0.000 F1348.000 E=27.755
N1504 X301.605 Y248.684 Z0.997 A0 B0 C25 ELX0.000 F1348.000 E=27.783
N1506 X295.185 Y247.423 Z0.997 A0 B0 C25 ELX0.000 F1348.000 E=27.822
N1508 X290.939 Y246.545 Z0.997 A0 B0 C25 ELX0.000 F1348.000 E=27.848
N1510 X284.039 Y245.070 Z0.997 A0 B0 C25 ELX0.000 F1348.000 E=27.891
N1512 X277.693 Y243.622 Z0.997 A0 B0 C25 ELX0.000 F1348.000 E=27.930
N1514 X272.044 Y242.209 Z0.997 A0 B0 C25 ELX0.000 F1348.000 E=27.965
N1516 X268.940 Y241.398 Z0.997 A0 B0 C25 ELX0.000 F1348.000 E=27.984
N1518 X263.951 Y240.001 Z0.997 A0 B0 C25 ELX0.000 F1348.000 E=28.015
N1520 X258.384 Y238.358 Z0.997 A0 B0 C25 ELX0.000 F1348.000 E=28.050
N1522 X252.624 Y236.544 Z0.997 A0 B0 C25 ELX0.000 F1348.000 E=28.086
N1524 X249.363 Y235.441 Z0.997 A0 B0 C25 ELX0.000 F1348.000 E=28.107
N1526 X246.441 Y234.436 Z0.997 A0 B0 C25 ELX0.000 F1348.000 E=28.125
N1528 X240.048 Y232.069 Z0.997 A0 B0 C25 ELX0.000 F1348.000 E=28.166
N1530 X236.409 Y230.640 Z0.997 A0 B0 C25 ELX0.000 F1348.000 E=28.189
N1532 X233.124 Y229.250 Z0.997 A0 B0 C25 ELX0.000 F1348.000 E=28.211
N1534 X230.259 Y227.996 Z0.997 A0 B0 C25 ELX0.000 F1348.000 E=28.230
N1536 X224.663 Y225.324 Z0.997 A0 B0 C25 ELX0.000 F1348.000 E=28.267
N1538 X220.324 Y223.052 Z0.997 A0 B0 C25 ELX0.000 F1348.000 E=28.296
N1540 X215.254 Y220.116 Z0.997 A0 B0 C25 ELX0.000 F1348.000 E=28.331
N1542 X212.534 Y218.423 Z0.997 A0 B0 C25 ELX0.000 F1348.000 E=28.351
N1544 X209.956 Y216.699 Z0.997 A0 B0 C25 ELX0.000 F1348.000 E=28.369
N1546 X206.964 Y214.545 Z0.997 A0 B0 C25 ELX0.000 F1348.000 E=28.391
N1548 X204.509 Y212.770 Z0.997 A0 B0 C25 ELX0.000 F1348.000 E=28.410
N1550 X201.865 Y210.679 Z0.997 A0 B0 C25 ELX0.000 F1348.000 E=28.430
N1552 X197.504 Y207.041 Z0.997 A0 B0 C25 ELX0.000 F1348.000 E=28.464
N1554 X192.671 Y202.721 Z0.997 A0 B0 C25 ELX0.000 F1348.000 E=28.503
N1556 X189.716 Y199.952 Z0.997 A0 B0 C25 ELX0.000 F1348.000 E=28.527
N1558 X186.578 Y197.017 Z0.997 A0 B0 C25 ELX0.000 F1348.000 E=28.553
N1560 X182.812 Y193.374 Z0.997 A0 B0 C25 ELX0.000 F1348.000 E=28.584
N1562 X179.534 Y190.253 Z0.997 A0 B0 C25 ELX0.000 F1348.000 E=28.611
N1564 X175.078 Y185.928 Z0.997 A0 B0 C25 ELX0.000 F1348.000 E=28.649
N1566 X171.502 Y182.640 Z0.997 A0 B0 C25 ELX0.000 F1348.000 E=28.678
N1568 X165.767 Y177.112 Z0.997 A0 B0 C25 ELX0.000 F1348.000 E=28.726
N1570 X161.029 Y172.705 Z0.997 A0 B0 C25 ELX0.000 F1348.000 E=28.764
N1572 X157.194 Y168.950 Z0.997 A0 B0 C25 ELX0.000 F1348.000 E=28.797
N1574 X153.217 Y164.994 Z0.997 A0 B0 C25 ELX0.000 F1348.000 E=28.830
N1576 X149.860 Y161.535 Z0.997 A0 B0 C25 ELX0.000 F1348.000 E=28.859
N1578 X146.258 Y157.700 Z0.997 A0 B0 C25 ELX0.000 F1348.000 E=28.891
N1580 X142.782 Y153.975 Z0.997 A0 B0 C25 ELX0.000 F1348.000 E=28.921
N1582 X139.672 Y150.621 Z0.997 A0 B0 C25 ELX0.000 F1348.000 E=28.949
N1584 X137.445 Y148.269 Z0.997 A0 B0 C25 ELX0.000 F1348.000 E=28.968
N1586 X134.549 Y145.321 Z0.997 A0 B0 C25 ELX0.000 F1348.000 E=28.993
N1588 X130.783 Y141.672 Z0.997 A0 B0 C25 ELX0.000 F1348.000 E=29.024
N1590 X128.458 Y139.510 Z0.997 A0 B0 C25 ELX0.000 F1348.000 E=29.044
N1592 X124.005 Y135.338 Z0.997 A0 B0 C25 ELX0.000 F1348.000 E=29.080
N1594 X119.243 Y131.046 Z0.997 A0 B0 C25 ELX0.000 F1348.000 E=29.119
N1596 X113.694 Y125.941 Z0.997 A0 B0 C25 ELX0.000 F1348.000 E=29.164
N1598 X111.052 Y123.482 Z0.997 A0 B0 C25 ELX0.000 F1348.000 E=29.185
N1600 X106.297 Y118.661 Z0.997 A0 B0 C25 ELX0.000 F1348.000 E=29.226
N1602 X102.742 Y115.055 Z0.997 A0 B0 C25 ELX0.000 F1348.000 E=29.257
N1604 X99.349 Y111.376 Z0.997 A0 B0 C25 ELX0.000 F1348.000 E=29.287
N1606 X96.433 Y108.394 Z0.997 A0 B0 C25 ELX0.000 F1348.000 E=29.312
N1608 X92.475 Y104.375 Z0.997 A0 B0 C25 ELX0.000 F1348.000 E=29.345
N1610 X90.164 Y102.324 Z0.997 A0 B0 C25 ELX0.000 F1348.000 E=29.364
N1612 X87.810 Y100.146 Z0.997 A0 B0 C25 ELX0.000 F1348.000 E=29.383
N1614 X83.803 Y96.809 Z0.997 A0 B0 C25 ELX0.000 F1348.000 E=29.414
N1616 X80.931 Y94.551 Z0.997 A0 B0 C25 ELX0.000 F1348.000 E=29.436
N1618 X77.440 Y91.745 Z0.997 A0 B0 C25 ELX0.000 F1348.000 E=29.463
N1620 X73.746 Y88.722 Z0.997 A0 B0 C25 ELX0.000 F1348.000 E=29.492
N1622 X69.229 Y84.543 Z0.997 A0 B0 C25 ELX0.000 F1348.000 E=29.529
N1624 X65.585 Y80.401 Z0.997 A0 B0 C25 ELX0.000 F1348.000 E=29.562
N1626 X63.042 Y76.463 Z0.997 A0 B0 C25 ELX0.000 F1348.000 E=29.590
N1628 X61.494 Y73.580 Z0.997 A0 B0 C25 ELX0.000 F1348.000 E=29.610
N1630 X59.181 Y67.912 Z0.997 A0 B0 C25 ELX0.000 F1348.000 E=29.646
N1632 X58.133 Y61.304 Z0.997 A0 B0 C25 ELX0.000 F1348.000 E=29.687
N1634 X58.275 Y55.966 Z0.997 A0 B0 C25 ELX0.000 F1348.000 E=29.719
N1636 X60.843 Y49.845 Z0.997 A0 B0 C25 ELX0.000 F1348.000 E=29.758
N1638 X63.909 Y47.244 Z0.997 A0 B0 C25 ELX0.000 F1348.000 E=29.783
N1640 X67.926 Y45.654 Z0.997 A0 B0 C25 ELX0.000 F1348.000 E=29.808
N1642 X71.421 Y45.299 Z0.997 A0 B0 C25 ELX0.000 F1348.000 E=29.830
N1644 X75.133 Y44.811 Z0.997 A0 B0 C25 ELX0.000 F1348.000 E=29.852
N1646 X80.428 Y44.720 Z0.997 A0 B0 C25 ELX0.000 F1348.000 E=29.884
N1648 X84.463 Y44.775 Z0.997 A0 B0 C25 ELX0.000 F1348.000 E=29.908
N1650 X92.307 Y45.084 Z0.997 A0 B0 C25 ELX0.000 F1348.000 E=29.955
N1652 X98.552 Y45.327 Z0.997 A0 B0 C25 ELX0.000 F1348.000 E=29.993
N1654 X106.130 Y45.425 Z0.997 A0 B0 C25 ELX0.000 F1348.000 E=30.038
N1656 X111.773 Y45.216 Z0.997 A0 B0 C25 ELX0.000 F1348.000 E=30.072
N1658 X117.885 Y44.910 Z0.997 A0 B0 C25 ELX0.000 F1348.000 E=30.109
N1660 X125.306 Y44.337 Z0.997 A0 B0 C25 ELX0.000 F1348.000 E=30.153
N1662 X130.344 Y43.832 Z0.997 A0 B0 C25 ELX0.000 F1348.000 E=30.184
N1664 X135.163 Y43.496 Z0.997 A0 B0 C25 ELX0.000 F1348.000 E=30.213
N1666 X143.482 Y42.928 Z0.997 A0 B0 C25 ELX0.000 F1348.000 E=30.263
N1668 X149.400 Y42.566 Z0.997 A0 B0 C25 ELX0.000 F1348.000 E=30.298
N1670 X152.597 Y42.438 Z0.997 A0 B0 C25 ELX0.000 F1348.000 E=30.317
N1672 X159.044 Y42.199 Z0.997 A0 B0 C25 ELX0.000 F1348.000 E=30.356
N1674 X163.641 Y42.089 Z0.997 A0 B0 C25 ELX0.000 F1348.000 E=30.384
N1676 X168.712 Y41.842 Z0.997 A0 B0 C25 ELX0.000 F1348.000 E=30.414
N1678 X171.876 Y41.807 Z0.997 A0 B0 C25 ELX0.000 F1348.000 E=30.433
N1680 X175.375 Y41.682 Z0.997 A0 B0 C25 ELX0.000 F1348.000 E=30.454
N1682 X178.603 Y41.520 Z0.997 A0 B0 C25 ELX0.000 F1348.000 E=30.474
N1684 X181.839 Y41.325 Z0.997 A0 B0 C25 ELX0.000 F1348.000 E=30.493
N1686 X184.895 Y41.189 Z0.997 A0 B0 C25 ELX0.000 F1348.000 E=30.511
N1688 X188.912 Y40.997 Z0.997 A0 B0 C25 ELX0.000 F1348.000 E=30.536
N1690 X193.639 Y40.708 Z0.997 A0 B0 C25 ELX0.000 F1348.000 E=30.564
N1692 X198.373 Y40.403 Z0.997 A0 B0 C25 ELX0.000 F1348.000 E=30.592
N1694 X204.980 Y40.068 Z0.997 A0 B0 C25 ELX0.000 F1348.000 E=30.632
N1696 X208.614 Y39.765 Z0.997 A0 B0 C25 ELX0.000 F1348.000 E=30.654
N1698 X213.854 Y39.521 Z0.997 A0 B0 C25 ELX0.000 F1348.000 E=30.686
N1700 X218.885 Y39.217 Z0.997 A0 B0 C25 ELX0.000 F1348.000 E=30.716
N1702 X224.935 Y38.870 Z0.997 A0 B0 C25 ELX0.000 F1348.000 E=30.752
N1704 X230.736 Y38.629 Z0.997 A0 B0 C25 ELX0.000 F1348.000 E=30.787
N1706 X235.063 Y38.285 Z0.997 A0 B0 C25 ELX0.000 F1348.000 E=30.813
N1708 X240.024 Y38.148 Z0.997 A0 B0 C25 ELX0.000 F1348.000 E=30.843
N1710 X243.062 Y37.927 Z0.997 A0 B0 C25 ELX0.000 F1348.000 E=30.861
N1712 X247.511 Y37.855 Z0.997 A0 B0 C25 ELX0.000 F1348.000 E=30.888
N1714 X250.574 Y37.657 Z0.997 A0 B0 C25 ELX0.000 F1348.000 E=30.906
N1716 X256.688 Y37.510 Z0.997 A0 B0 C25 ELX0.000 F1348.000 E=30.943
N1718 X260.622 Y37.308 Z0.997 A0 B0 C25 ELX0.000 F1348.000 E=30.966
N1720 X264.293 Y37.213 Z0.997 A0 B0 C25 ELX0.000 F1348.000 E=30.989
N1722 X267.317 Y37.072 Z0.997 A0 B0 C25 ELX0.000 F1348.000 E=31.007
N1724 X271.332 Y36.933 Z0.997 A0 B0 C25 ELX0.000 F1348.000 E=31.031
N1726 X277.824 Y36.600 Z0.997 A0 B0 C25 ELX0.000 F1348.000 E=31.070
N1728 X284.459 Y36.214 Z0.997 A0 B0 C25 ELX0.000 F1348.000 E=31.110
N1730 X291.615 Y35.775 Z0.997 A0 B0 C25 ELX0.000 F1348.000 E=31.153
N1732 X299.597 Y35.212 Z0.997 A0 B0 C25 ELX0.000 F1348.000 E=31.201
N1734 X306.423 Y34.679 Z0.997 A0 B0 C25 ELX0.000 F1348.000 E=31.242
N1736 X311.134 Y34.286 Z0.997 A0 B0 C25 ELX0.000 F1348.000 E=31.270
N1738 X311.134 Y34.286 Z1.497 A0 B0 C25 ELX0.000 F1500.000 E=31.070; Retract
N1740 X311.134 Y34.286 Z11.497 A0 B0 C25 ELX0.000 F1500.000; Departure
N1742 X311.134 Y34.286 Z11.497 A0 B0 C25 ELX0.000 F1500.000 E 30.770; Retract
N1744 X327.301 Y63.494 Z11.497 A0 B0 C25 ELX0.000 F1500.000; Apporach
N1746 X327.301 Y63.494 Z0.997 A0 B0 C25 ELX0.000 F1500.000 E 31.970; Engage
N1748 X330.622 Y63.174 Z0.997 A0 B0 C25 ELX0.000 F1348.000 E=31.990
N1750 X334.062 Y62.662 Z0.997 A0 B0 C25 ELX0.000 F1348.000 E=32.011
N1752 X337.110 Y62.147 Z0.997 A0 B0 C25 ELX0.000 F1348.000 E=32.030
N1754 X340.093 Y61.463 Z0.997 A0 B0 C25 ELX0.000 F1348.000 E=32.048
N1756 X348.460 Y59.331 Z0.997 A0 B0 C25 ELX0.000 F1348.000 E=32.100
N1758 X352.641 Y58.235 Z0.997 A0 B0 C25 ELX0.000 F1348.000 E=32.126
N1760 X355.500 Y57.286 Z0.997 A0 B0 C25 ELX0.000 F1348.000 E=32.144
N1762 X359.247 Y56.291 Z0.997 A0 B0 C25 ELX0.000 F1348.000 E=32.167
N1764 X364.960 Y54.704 Z0.997 A0 B0 C25 ELX0.000 F1348.000 E=32.203
N1766 X369.524 Y53.542 Z0.997 A0 B0 C25 ELX0.000 F1348.000 E=32.231
N1768 X372.559 Y52.816 Z0.997 A0 B0 C25 ELX0.000 F1348.000 E=32.250
N1770 X378.124 Y51.544 Z0.997 A0 B0 C25 ELX0.000 F1348.000 E=32.284
N1772 X384.038 Y50.260 Z0.997 A0 B0 C25 ELX0.000 F1348.000 E=32.320
N1774 X390.356 Y48.993 Z0.997 A0 B0 C25 ELX0.000 F1348.000 E=32.359
N1776 X396.053 Y47.951 Z0.997 A0 B0 C25 ELX0.000 F1348.000 E=32.394
N1778 X399.326 Y47.420 Z0.997 A0 B0 C25 ELX0.000 F1348.000 E=32.413
N1780 X406.344 Y46.424 Z0.997 A0 B0 C25 ELX0.000 F1348.000 E=32.456
N1782 X411.100 Y45.932 Z0.997 A0 B0 C25 ELX0.000 F1348.000 E=32.485
N1784 X418.065 Y45.495 Z0.997 A0 B0 C25 ELX0.000 F1348.000 E=32.527
N1786 X426.015 Y45.357 Z0.997 A0 B0 C25 ELX0.000 F1348.000 E=32.574
N1788 X431.302 Y45.386 Z0.997 A0 B0 C25 ELX0.000 F1348.000 E=32.606
N1790 X437.754 Y45.512 Z0.997 A0 B0 C25 ELX0.000 F1348.000 E=32.645
N1792 X443.082 Y45.646 Z0.997 A0 B0 C25 ELX0.000 F1348.000 E=32.677
N1794 X447.486 Y45.727 Z0.997 A0 B0 C25 ELX0.000 F1348.000 E=32.703
N1796 X453.412 Y45.813 Z0.997 A0 B0 C25 ELX0.000 F1348.000 E=32.739
N1798 X458.132 Y45.845 Z0.997 A0 B0 C25 ELX0.000 F1348.000 E=32.767
N1800 X463.126 Y45.863 Z0.997 A0 B0 C25 ELX0.000 F1348.000 E=32.797
N1802 X468.034 Y45.861 Z0.997 A0 B0 C25 ELX0.000 F1348.000 E=32.826
N1804 X473.806 Y45.835 Z0.997 A0 B0 C25 ELX0.000 F1348.000 E=32.861
N1806 X478.540 Y45.799 Z0.997 A0 B0 C25 ELX0.000 F1348.000 E=32.889
N1808 X481.844 Y45.781 Z0.997 A0 B0 C25 ELX0.000 F1348.000 E=32.909
N1810 X489.846 Y45.724 Z0.997 A0 B0 C25 ELX0.000 F1348.000 E=32.957
N1812 X495.584 Y45.680 Z0.997 A0 B0 C25 ELX0.000 F1348.000 E=32.992
N1814 X501.684 Y45.629 Z0.997 A0 B0 C25 ELX0.000 F1348.000 E=33.028
N1816 X507.728 Y45.608 Z0.997 A0 B0 C25 ELX0.000 F1348.000 E=33.065
N1818 X512.143 Y45.590 Z0.997 A0 B0 C25 ELX0.000 F1348.000 E=33.091
N1820 X516.485 Y45.582 Z0.997 A0 B0 C25 ELX0.000 F1348.000 E=33.117
N1822 X520.596 Y45.587 Z0.997 A0 B0 C25 ELX0.000 F1348.000 E=33.142
N1824 X526.298 Y45.597 Z0.997 A0 B0 C25 ELX0.000 F1348.000 E=33.176
N1826 X529.427 Y45.599 Z0.997 A0 B0 C25 ELX0.000 F1348.000 E=33.195
N1828 X534.548 Y45.608 Z0.997 A0 B0 C25 ELX0.000 F1348.000 E=33.225
N1830 X538.916 Y45.609 Z0.997 A0 B0 C25 ELX0.000 F1348.000 E=33.252
N1832 X543.307 Y45.608 Z0.997 A0 B0 C25 ELX0.000 F1348.000 E=33.278
N1834 X549.406 Y45.584 Z0.997 A0 B0 C25 ELX0.000 F1348.000 E=33.315
N1836 X553.697 Y45.560 Z0.997 A0 B0 C25 ELX0.000 F1348.000 E=33.340
N1838 X557.696 Y45.523 Z0.997 A0 B0 C25 ELX0.000 F1348.000 E=33.364
N1840 X562.353 Y45.451 Z0.997 A0 B0 C25 ELX0.000 F1348.000 E=33.392
N1842 X566.295 Y45.420 Z0.997 A0 B0 C25 ELX0.000 F1348.000 E=33.416
N1844 X573.227 Y45.335 Z0.997 A0 B0 C25 ELX0.000 F1348.000 E=33.458
N1846 X577.489 Y45.252 Z0.997 A0 B0 C25 ELX0.000 F1348.000 E=33.483
N1848 X581.721 Y45.215 Z0.997 A0 B0 C25 ELX0.000 F1348.000 E=33.509
N1850 X586.104 Y45.156 Z0.997 A0 B0 C25 ELX0.000 F1348.000 E=33.535
N1852 X590.825 Y45.125 Z0.997 A0 B0 C25 ELX0.000 F1348.000 E=33.563
N1854 X597.102 Y45.100 Z0.997 A0 B0 C25 ELX0.000 F1348.000 E=33.601
N1856 X603.026 Y45.135 Z0.997 A0 B0 C25 ELX0.000 F1348.000 E=33.636
N1858 X607.342 Y45.171 Z0.997 A0 B0 C25 ELX0.000 F1348.000 E=33.662
N1860 X612.804 Y45.271 Z0.997 A0 B0 C25 ELX0.000 F1348.000 E=33.695
N1862 X619.848 Y45.503 Z0.997 A0 B0 C25 ELX0.000 F1348.000 E=33.737
N1864 X623.780 Y45.646 Z0.997 A0 B0 C25 ELX0.000 F1348.000 E=33.761
N1866 X629.332 Y46.012 Z0.997 A0 B0 C25 ELX0.000 F1348.000 E=33.794
N1868 X634.231 Y46.418 Z0.997 A0 B0 C25 ELX0.000 F1348.000 E=33.824
N1870 X641.985 Y47.396 Z0.997 A0 B0 C25 ELX0.000 F1348.000 E=33.871
N1872 X646.387 Y48.106 Z0.997 A0 B0 C25 ELX0.000 F1348.000 E=33.897
N1874 X655.375 Y50.252 Z0.997 A0 B0 C25 ELX0.000 F1348.000 E=33.953
N1876 X659.029 Y51.134 Z0.997 A0 B0 C25 ELX0.000 F1348.000 E=33.975
N1878 X665.831 Y53.125 Z0.997 A0 B0 C25 ELX0.000 F1348.000 E=34.018
N1880 X669.482 Y54.246 Z0.997 A0 B0 C25 ELX0.000 F1348.000 E=34.041
N1882 X672.929 Y55.249 Z0.997 A0 B0 C25 ELX0.000 F1348.000 E=34.062
N1884 X675.938 Y56.112 Z0.997 A0 B0 C25 ELX0.000 F1348.000 E=34.081
N1886 X681.853 Y57.653 Z0.997 A0 B0 C25 ELX0.000 F1348.000 E=34.118
N1888 X685.631 Y58.559 Z0.997 A0 B0 C25 ELX0.000 F1348.000 E=34.141
N1890 X690.086 Y59.369 Z0.997 A0 B0 C25 ELX0.000 F1348.000 E=34.168
N1892 X694.860 Y60.068 Z0.997 A0 B0 C25 ELX0.000 F1348.000 E=34.197
N1894 X701.145 Y60.822 Z0.997 A0 B0 C25 ELX0.000 F1348.000 E=34.235
N1896 X705.842 Y61.194 Z0.997 A0 B0 C25 ELX0.000 F1348.000 E=34.264
N1898 X711.435 Y61.379 Z0.997 A0 B0 C25 ELX0.000 F1348.000 E=34.297
N1900 X717.985 Y61.562 Z0.997 A0 B0 C25 ELX0.000 F1348.000 E=34.336
N1902 X721.769 Y61.496 Z0.997 A0 B0 C25 ELX0.000 F1348.000 E=34.359
N1904 X727.772 Y61.369 Z0.997 A0 B0 C25 ELX0.000 F1348.000 E=34.395
N1906 X733.557 Y61.213 Z0.997 A0 B0 C25 ELX0.000 F1348.000 E=34.430
N1908 X737.542 Y61.127 Z0.997 A0 B0 C25 ELX0.000 F1348.000 E=34.454
N1910 X744.210 Y61.018 Z0.997 A0 B0 C25 ELX0.000 F1348.000 E=34.494
N1912 X748.420 Y60.759 Z0.997 A0 B0 C25 ELX0.000 F1348.000 E=34.519
N1914 X752.758 Y60.775 Z0.997 A0 B0 C25 ELX0.000 F1348.000 E=34.545
N1916 X757.711 Y60.701 Z0.997 A0 B0 C25 ELX0.000 F1348.000 E=34.575
N1918 X761.641 Y60.881 Z0.997 A0 B0 C25 ELX0.000 F1348.000 E=34.598
N1920 X764.991 Y60.795 Z0.997 A0 B0 C25 ELX0.000 F1348.000 E=34.619
N1922 X769.184 Y60.788 Z0.997 A0 B0 C25 ELX0.000 F1348.000 E=34.644
N1924 X773.901 Y60.881 Z0.997 A0 B0 C25 ELX0.000 F1348.000 E=34.672
N1926 X780.276 Y61.024 Z0.997 A0 B0 C25 ELX0.000 F1348.000 E=34.710
N1928 X785.106 Y61.150 Z0.997 A0 B0 C25 ELX0.000 F1348.000 E=34.739
N1930 X789.766 Y61.283 Z0.997 A0 B0 C25 ELX0.000 F1348.000 E=34.767
N1932 X794.043 Y61.419 Z0.997 A0 B0 C25 ELX0.000 F1348.000 E=34.793
N1934 X799.702 Y61.636 Z0.997 A0 B0 C25 ELX0.000 F1348.000 E=34.827
N1936 X803.684 Y61.800 Z0.997 A0 B0 C25 ELX0.000 F1348.000 E=34.851
N1938 X807.233 Y61.939 Z0.997 A0 B0 C25 ELX0.000 F1348.000 E=34.872
N1940 X811.938 Y62.185 Z0.997 A0 B0 C25 ELX0.000 F1348.000 E=34.900
N1942 X815.283 Y62.350 Z0.997 A0 B0 C25 ELX0.000 F1348.000 E=34.921
N1944 X818.660 Y62.528 Z0.997 A0 B0 C25 ELX0.000 F1348.000 E=34.941
N1946 X821.690 Y62.702 Z0.997 A0 B0 C25 ELX0.000 F1348.000 E=34.959
N1948 X824.921 Y62.878 Z0.997 A0 B0 C25 ELX0.000 F1348.000 E=34.978
N1950 X828.208 Y63.064 Z0.997 A0 B0 C25 ELX0.000 F1348.000 E=34.998
N1952 X831.296 Y63.222 Z0.997 A0 B0 C25 ELX0.000 F1348.000 E=35.017
N1954 X834.497 Y63.382 Z0.997 A0 B0 C25 ELX0.000 F1348.000 E=35.036
N1956 X838.184 Y63.578 Z0.997 A0 B0 C25 ELX0.000 F1348.000 E=35.058
N1958 X841.708 Y63.764 Z0.997 A0 B0 C25 ELX0.000 F1348.000 E=35.079
N1960 X845.743 Y64.002 Z0.997 A0 B0 C25 ELX0.000 F1348.000 E=35.104
N1962 X848.743 Y64.153 Z0.997 A0 B0 C25 ELX0.000 F1348.000 E=35.122
N1964 X852.444 Y64.349 Z0.997 A0 B0 C25 ELX0.000 F1348.000 E=35.144
N1966 X855.683 Y64.509 Z0.997 A0 B0 C25 ELX0.000 F1348.000 E=35.163
N1968 X860.222 Y64.755 Z0.997 A0 B0 C25 ELX0.000 F1348.000 E=35.191
N1970 X863.255 Y64.916 Z0.997 A0 B0 C25 ELX0.000 F1348.000 E=35.209
N1972 X866.316 Y65.087 Z0.997 A0 B0 C25 ELX0.000 F1348.000 E=35.227
N1974 X869.545 Y65.251 Z0.997 A0 B0 C25 ELX0.000 F1348.000 E=35.247
N1976 X873.279 Y65.448 Z0.997 A0 B0 C25 ELX0.000 F1348.000 E=35.269
N1978 X877.898 Y65.721 Z0.997 A0 B0 C25 ELX0.000 F1348.000 E=35.297
N1980 X882.737 Y65.911 Z0.997 A0 B0 C25 ELX0.000 F1348.000 E=35.326
N1982 X887.357 Y66.179 Z0.997 A0 B0 C25 ELX0.000 F1348.000 E=35.354
N1984 X887.357 Y66.179 Z0.997 A0 B0 C25 ELX0.000 F1348.000 E=35.354
N1986 X891.929 Y66.390 Z0.997 A0 B0 C25 ELX0.000 F1348.000 E=35.381
N1988 X897.241 Y66.696 Z0.997 A0 B0 C25 ELX0.000 F1348.000 E=35.413
N1990 X902.693 Y67.034 Z0.997 A0 B0 C25 ELX0.000 F1348.000 E=35.446
N1992 X907.104 Y67.378 Z0.997 A0 B0 C25 ELX0.000 F1348.000 E=35.472
N1994 X916.637 Y69.052 Z0.997 A0 B0 C25 ELX0.000 F1348.000 E=35.530
N1996 X916.637 Y69.052 Z1.497 A0 B0 C25 ELX0.000 F1500.000 E=35.330; Retract
N1998 X916.637 Y69.052 Z11.497 A0 B0 C25 ELX0.000 F1500.000; Departure
N2000 X916.637 Y69.052 Z11.497 A0 B0 C25 ELX0.000 F1500.000 E 35.030; Retract
N2002 X978.058 Y34.286 Z11.497 A0 B0 C25 ELX0.000 F1500.000; Apporach
N2004 X978.058 Y34.286 Z0.997 A0 B0 C25 ELX0.000 F1500.000 E 36.230; Engage
N2006 X982.621 Y38.078 Z0.997 A0 B0 C25 ELX0.000 F1348.000 E=36.266
N2008 X983.782 Y42.696 Z0.997 A0 B0 C25 ELX0.000 F1348.000 E=36.295
N2010 X983.266 Y50.514 Z0.997 A0 B0 C25 ELX0.000 F1348.000 E=36.342
N2012 X981.807 Y57.687 Z0.997 A0 B0 C25 ELX0.000 F1348.000 E=36.385
N2014 X980.073 Y63.492 Z0.997 A0 B0 C25 ELX0.000 F1348.000 E=36.422
N2016 X978.569 Y67.879 Z0.997 A0 B0 C25 ELX0.000 F1348.000 E=36.450
N2018 X977.429 Y70.789 Z0.997 A0 B0 C25 ELX0.000 F1348.000 E=36.468
N2020 X975.489 Y75.323 Z0.997 A0 B0 C25 ELX0.000 F1348.000 E=36.498
N2022 X973.303 Y79.375 Z0.997 A0 B0 C25 ELX0.000 F1348.000 E=36.526
N2024 X970.583 Y83.470 Z0.997 A0 B0 C25 ELX0.000 F1348.000 E=36.555
N2026 X968.095 Y87.050 Z0.997 A0 B0 C25 ELX0.000 F1348.000 E=36.581
N2028 X965.642 Y89.902 Z0.997 A0 B0 C25 ELX0.000 F1348.000 E=36.604
N2030 X963.549 Y92.166 Z0.997 A0 B0 C25 ELX0.000 F1348.000 E=36.622
N2032 X960.211 Y95.347 Z0.997 A0 B0 C25 ELX0.000 F1348.000 E=36.650
N2034 X954.918 Y99.941 Z0.997 A0 B0 C25 ELX0.000 F1348.000 E=36.692
N2036 X952.550 Y102.110 Z0.997 A0 B0 C25 ELX0.000 F1348.000 E=36.711
N2038 X950.083 Y104.145 Z0.997 A0 B0 C25 ELX0.000 F1348.000 E=36.731
N2040 X945.059 Y108.747 Z0.997 A0 B0 C25 ELX0.000 F1348.000 E=36.771
N2042 X939.768 Y114.022 Z0.997 A0 B0 C25 ELX0.000 F1348.000 E=36.816
N2044 X935.918 Y117.920 Z0.997 A0 B0 C25 ELX0.000 F1348.000 E=36.849
N2046 X933.563 Y120.359 Z0.997 A0 B0 C25 ELX0.000 F1348.000 E=36.869
N2048 X931.436 Y122.631 Z0.997 A0 B0 C25 ELX0.000 F1348.000 E=36.888
N2050 X925.734 Y128.160 Z0.997 A0 B0 C25 ELX0.000 F1348.000 E=36.936
N2052 X919.168 Y134.327 Z0.997 A0 B0 C25 ELX0.000 F1348.000 E=36.990
N2054 X916.368 Y136.899 Z0.997 A0 B0 C25 ELX0.000 F1348.000 E=37.013
N2056 X913.365 Y139.692 Z0.997 A0 B0 C25 ELX0.000 F1348.000 E=37.037
N2058 X909.861 Y142.839 Z0.997 A0 B0 C25 ELX0.000 F1348.000 E=37.065
N2060 X907.547 Y144.982 Z0.997 A0 B0 C25 ELX0.000 F1348.000 E=37.084
N2062 X905.332 Y147.070 Z0.997 A0 B0 C25 ELX0.000 F1348.000 E=37.103
N2064 X902.737 Y149.559 Z0.997 A0 B0 C25 ELX0.000 F1348.000 E=37.124
N2066 X899.636 Y152.419 Z0.997 A0 B0 C25 ELX0.000 F1348.000 E=37.150
N2068 X896.677 Y155.316 Z0.997 A0 B0 C25 ELX0.000 F1348.000 E=37.174
N2070 X894.203 Y157.743 Z0.997 A0 B0 C25 ELX0.000 F1348.000 E=37.195
N2072 X890.857 Y161.247 Z0.997 A0 B0 C25 ELX0.000 F1348.000 E=37.224
N2074 X887.885 Y164.165 Z0.997 A0 B0 C25 ELX0.000 F1348.000 E=37.249
N2076 X883.784 Y168.398 Z0.997 A0 B0 C25 ELX0.000 F1348.000 E=37.285
N2078 X878.873 Y173.293 Z0.997 A0 B0 C25 ELX0.000 F1348.000 E=37.326
N2080 X874.892 Y177.177 Z0.997 A0 B0 C25 ELX0.000 F1348.000 E=37.360
N2082 X872.126 Y179.849 Z0.997 A0 B0 C25 ELX0.000 F1348.000 E=37.383
N2084 X869.933 Y181.968 Z0.997 A0 B0 C25 ELX0.000 F1348.000 E=37.401
N2086 X867.442 Y184.363 Z0.997 A0 B0 C25 ELX0.000 F1348.000 E=37.422
N2088 X863.712 Y187.973 Z0.997 A0 B0 C25 ELX0.000 F1348.000 E=37.453
N2090 X860.315 Y191.276 Z0.997 A0 B0 C25 ELX0.000 F1348.000 E=37.481
N2092 X857.387 Y194.106 Z0.997 A0 B0 C25 ELX0.000 F1348.000 E=37.506
N2094 X853.921 Y197.468 Z0.997 A0 B0 C25 ELX0.000 F1348.000 E=37.535
N2096 X851.600 Y199.721 Z0.997 A0 B0 C25 ELX0.000 F1348.000 E=37.554
N2098 X846.748 Y204.358 Z0.997 A0 B0 C25 ELX0.000 F1348.000 E=37.594
N2100 X843.997 Y206.929 Z0.997 A0 B0 C25 ELX0.000 F1348.000 E=37.617
N2102 X841.181 Y209.551 Z0.997 A0 B0 C25 ELX0.000 F1348.000 E=37.640
N2104 X837.524 Y212.811 Z0.997 A0 B0 C25 ELX0.000 F1348.000 E=37.669
N2106 X833.522 Y216.236 Z0.997 A0 B0 C25 ELX0.000 F1348.000 E=37.701
N2108 X828.778 Y220.000 Z0.997 A0 B0 C25 ELX0.000 F1348.000 E=37.737
N2110 X824.942 Y222.823 Z0.997 A0 B0 C25 ELX0.000 F1348.000 E=37.766
N2112 X821.835 Y224.894 Z0.997 A0 B0 C25 ELX0.000 F1348.000 E=37.788
N2114 X816.959 Y227.881 Z0.997 A0 B0 C25 ELX0.000 F1348.000 E=37.823
N2116 X812.241 Y230.467 Z0.997 A0 B0 C25 ELX0.000 F1348.000 E=37.855
N2118 X805.963 Y233.476 Z0.997 A0 B0 C25 ELX0.000 F1348.000 E=37.897
N2120 X800.011 Y236.073 Z0.997 A0 B0 C25 ELX0.000 F1348.000 E=37.936
N2122 X795.312 Y237.922 Z0.997 A0 B0 C25 ELX0.000 F1348.000 E=37.966
N2124 X792.003 Y239.129 Z0.997 A0 B0 C25 ELX0.000 F1348.000 E=37.987
N2126 X787.402 Y240.735 Z0.997 A0 B0 C25 ELX0.000 F1348.000 E=38.016
N2128 X784.393 Y241.753 Z0.997 A0 B0 C25 ELX0.000 F1348.000 E=38.035
N2130 X779.989 Y243.178 Z0.997 A0 B0 C25 ELX0.000 F1348.000 E=38.063
N2132 X776.062 Y244.374 Z0.997 A0 B0 C25 ELX0.000 F1348.000 E=38.088
N2134 X770.780 Y245.923 Z0.997 A0 B0 C25 ELX0.000 F1348.000 E=38.121
N2136 X764.766 Y247.641 Z0.997 A0 B0 C25 ELX0.000 F1348.000 E=38.158
N2138 X761.827 Y248.407 Z0.997 A0 B0 C25 ELX0.000 F1348.000 E=38.177
N2140 X755.856 Y249.947 Z0.997 A0 B0 C25 ELX0.000 F1348.000 E=38.214
N2142 X750.061 Y251.363 Z0.997 A0 B0 C25 ELX0.000 F1348.000 E=38.249
N2144 X744.928 Y252.530 Z0.997 A0 B0 C25 ELX0.000 F1348.000 E=38.281
N2146 X738.494 Y253.877 Z0.997 A0 B0 C25 ELX0.000 F1348.000 E=38.320
N2148 X733.845 Y254.858 Z0.997 A0 B0 C25 ELX0.000 F1348.000 E=38.349
N2150 X730.035 Y255.578 Z0.997 A0 B0 C25 ELX0.000 F1348.000 E=38.372
N2152 X726.386 Y256.249 Z0.997 A0 B0 C25 ELX0.000 F1348.000 E=38.394
N2154 X720.989 Y257.347 Z0.997 A0 B0 C25 ELX0.000 F1348.000 E=38.427
N2156 X716.472 Y258.254 Z0.997 A0 B0 C25 ELX0.000 F1348.000 E=38.455
N2158 X713.517 Y258.821 Z0.997 A0 B0 C25 ELX0.000 F1348.000 E=38.473
N2160 X709.456 Y259.661 Z0.997 A0 B0 C25 ELX0.000 F1348.000 E=38.498
N2162 X706.051 Y260.391 Z0.997 A0 B0 C25 ELX0.000 F1348.000 E=38.519
N2164 X696.324 Y262.503 Z0.997 A0 B0 C25 ELX0.000 F1348.000 E=38.579
N2166 X691.458 Y263.573 Z0.997 A0 B0 C25 ELX0.000 F1348.000 E=38.609
N2168 X685.514 Y264.777 Z0.997 A0 B0 C25 ELX0.000 F1348.000 E=38.645
N2170 X679.293 Y266.012 Z0.997 A0 B0 C25 ELX0.000 F1348.000 E=38.683
N2172 X673.618 Y267.001 Z0.997 A0 B0 C25 ELX0.000 F1348.000 E=38.718
N2174 X663.841 Y268.664 Z0.997 A0 B0 C25 ELX0.000 F1348.000 E=38.777
N2176 X656.606 Y269.899 Z0.997 A0 B0 C25 ELX0.000 F1348.000 E=38.821
N2178 X649.854 Y271.099 Z0.997 A0 B0 C25 ELX0.000 F1348.000 E=38.862
N2180 X645.245 Y271.978 Z0.997 A0 B0 C25 ELX0.000 F1348.000 E=38.890
N2182 X641.494 Y272.715 Z0.997 A0 B0 C25 ELX0.000 F1348.000 E=38.913
N2184 X634.365 Y274.194 Z0.997 A0 B0 C25 ELX0.000 F1348.000 E=38.957
N2186 X634.365 Y274.194 Z1.497 A0 B0 C25 ELX0.000 F1500.000 E=38.757; Retract
N2188 X634.365 Y274.194 Z11.497 A0 B0 C25 ELX0.000 F1500.000; Departure
N2190 X634.365 Y274.194 Z11.497 A0 B0 C25 ELX0.000 F1500.000 E 38.457; Retract
N2192 X604.876 Y274.286 Z11.497 A0 B0 C25 ELX0.000 F1500.000; Apporach
N2194 X604.876 Y274.286 Z0.997 A0 B0 C25 ELX0.000 F1500.000 E 39.657; Engage
N2196 X611.879 Y272.656 Z0.997 A0 B0 C25 ELX0.000 F1348.000 E=39.700
N2198 X615.809 Y271.747 Z0.997 A0 B0 C25 ELX0.000 F1348.000 E=39.724
N2200 X619.206 Y270.941 Z0.997 A0 B0 C25 ELX0.000 F1348.000 E=39.745
N2202 X622.553 Y270.171 Z0.997 A0 B0 C25 ELX0.000 F1348.000 E=39.766
N2204 X628.417 Y268.846 Z0.997 A0 B0 C25 ELX0.000 F1348.000 E=39.802
N2206 X633.625 Y267.715 Z0.997 A0 B0 C25 ELX0.000 F1348.000 E=39.834
N2208 X639.837 Y266.442 Z0.997 A0 B0 C25 ELX0.000 F1348.000 E=39.872
N2210 X645.217 Y265.365 Z0.997 A0 B0 C25 ELX0.000 F1348.000 E=39.905
N2212 X652.924 Y263.928 Z0.997 A0 B0 C25 ELX0.000 F1348.000 E=39.952
N2214 X660.645 Y262.569 Z0.997 A0 B0 C25 ELX0.000 F1348.000 E=39.999
N2216 X666.869 Y261.507 Z0.997 A0 B0 C25 ELX0.000 F1348.000 E=40.037
N2218 X670.825 Y260.780 Z0.997 A0 B0 C25 ELX0.000 F1348.000 E=40.061
N2220 X676.142 Y259.816 Z0.997 A0 B0 C25 ELX0.000 F1348.000 E=40.093
N2222 X681.881 Y258.773 Z0.997 A0 B0 C25 ELX0.000 F1348.000 E=40.128
N2224 X688.390 Y257.470 Z0.997 A0 B0 C25 ELX0.000 F1348.000 E=40.168
N2226 X694.239 Y256.312 Z0.997 A0 B0 C25 ELX0.000 F1348.000 E=40.204
N2228 X701.326 Y254.890 Z0.997 A0 B0 C25 ELX0.000 F1348.000 E=40.247
N2230 X705.790 Y253.957 Z0.997 A0 B0 C25 ELX0.000 F1348.000 E=40.275
N2232 X712.061 Y252.715 Z0.997 A0 B0 C25 ELX0.000 F1348.000 E=40.313
N2234 X719.226 Y251.344 Z0.997 A0 B0 C25 ELX0.000 F1348.000 E=40.357
N2236 X723.385 Y250.539 Z0.997 A0 B0 C25 ELX0.000 F1348.000 E=40.382
N2238 X726.678 Y249.897 Z0.997 A0 B0 C25 ELX0.000 F1348.000 E=40.402
N2240 X730.245 Y249.215 Z0.997 A0 B0 C25 ELX0.000 F1348.000 E=40.424
N2242 X736.532 Y247.964 Z0.997 A0 B0 C25 ELX0.000 F1348.000 E=40.463
N2244 X742.549 Y246.714 Z0.997 A0 B0 C25 ELX0.000 F1348.000 E=40.500
N2246 X750.507 Y244.925 Z0.997 A0 B0 C25 ELX0.000 F1348.000 E=40.549
N2248 X758.386 Y243.012 Z0.997 A0 B0 C25 ELX0.000 F1348.000 E=40.597
N2250 X763.795 Y241.596 Z0.997 A0 B0 C25 ELX0.000 F1348.000 E=40.631
N2252 X767.591 Y240.551 Z0.997 A0 B0 C25 ELX0.000 F1348.000 E=40.654
N2254 X771.752 Y239.366 Z0.997 A0 B0 C25 ELX0.000 F1348.000 E=40.680
N2256 X776.657 Y237.897 Z0.997 A0 B0 C25 ELX0.000 F1348.000 E=40.711
N2258 X779.781 Y236.877 Z0.997 A0 B0 C25 ELX0.000 F1348.000 E=40.731
N2260 X786.330 Y234.707 Z0.997 A0 B0 C25 ELX0.000 F1348.000 E=40.772
N2262 X792.033 Y232.633 Z0.997 A0 B0 C25 ELX0.000 F1348.000 E=40.809
N2264 X798.209 Y230.186 Z0.997 A0 B0 C25 ELX0.000 F1348.000 E=40.848
N2266 X804.140 Y227.542 Z0.997 A0 B0 C25 ELX0.000 F1348.000 E=40.887
N2268 X807.503 Y225.925 Z0.997 A0 B0 C25 ELX0.000 F1348.000 E=40.910
N2270 X811.102 Y224.055 Z0.997 A0 B0 C25 ELX0.000 F1348.000 E=40.934
N2272 X814.846 Y221.935 Z0.997 A0 B0 C25 ELX0.000 F1348.000 E=40.960
N2274 X818.480 Y219.670 Z0.997 A0 B0 C25 ELX0.000 F1348.000 E=40.986
N2276 X823.120 Y216.564 Z0.997 A0 B0 C25 ELX0.000 F1348.000 E=41.019
N2278 X826.500 Y214.087 Z0.997 A0 B0 C25 ELX0.000 F1348.000 E=41.044
N2280 X830.518 Y210.861 Z0.997 A0 B0 C25 ELX0.000 F1348.000 E=41.075
N2282 X835.495 Y206.547 Z0.997 A0 B0 C25 ELX0.000 F1348.000 E=41.115
N2284 X841.132 Y201.352 Z0.997 A0 B0 C25 ELX0.000 F1348.000 E=41.161
N2286 X843.426 Y199.163 Z0.997 A0 B0 C25 ELX0.000 F1348.000 E=41.180
N2288 X847.100 Y195.587 Z0.997 A0 B0 C25 ELX0.000 F1348.000 E=41.210
N2290 X851.480 Y191.309 Z0.997 A0 B0 C25 ELX0.000 F1348.000 E=41.247
N2292 X854.509 Y188.334 Z0.997 A0 B0 C25 ELX0.000 F1348.000 E=41.273
N2294 X859.017 Y184.040 Z0.997 A0 B0 C25 ELX0.000 F1348.000 E=41.310
N2296 X863.492 Y179.743 Z0.997 A0 B0 C25 ELX0.000 F1348.000 E=41.347
N2298 X866.017 Y177.320 Z0.997 A0 B0 C25 ELX0.000 F1348.000 E=41.368
N2300 X869.846 Y173.667 Z0.997 A0 B0 C25 ELX0.000 F1348.000 E=41.400
N2302 X875.455 Y168.173 Z0.997 A0 B0 C25 ELX0.000 F1348.000 E=41.447
N2304 X879.024 Y164.537 Z0.997 A0 B0 C25 ELX0.000 F1348.000 E=41.478
N2306 X883.586 Y159.769 Z0.997 A0 B0 C25 ELX0.000 F1348.000 E=41.517
N2308 X886.148 Y156.981 Z0.997 A0 B0 C25 ELX0.000 F1348.000 E=41.540
N2310 X889.791 Y152.989 Z0.997 A0 B0 C25 ELX0.000 F1348.000 E=41.572
N2312 X894.286 Y148.319 Z0.997 A0 B0 C25 ELX0.000 F1348.000 E=41.611
N2314 X897.349 Y145.332 Z0.997 A0 B0 C25 ELX0.000 F1348.000 E=41.637
N2316 X900.480 Y142.313 Z0.997 A0 B0 C25 ELX0.000 F1348.000 E=41.663
N2318 X904.477 Y138.568 Z0.997 A0 B0 C25 ELX0.000 F1348.000 E=41.696
N2320 X909.206 Y134.363 Z0.997 A0 B0 C25 ELX0.000 F1348.000 E=41.734
N2322 X913.974 Y129.990 Z0.997 A0 B0 C25 ELX0.000 F1348.000 E=41.773
N2324 X916.475 Y127.689 Z0.997 A0 B0 C25 ELX0.000 F1348.000 E=41.793
N2326 X920.310 Y123.895 Z0.997 A0 B0 C25 ELX0.000 F1348.000 E=41.825
N2328 X922.965 Y121.230 Z0.997 A0 B0 C25 ELX0.000 F1348.000 E=41.848
N2330 X925.879 Y118.289 Z0.997 A0 B0 C25 ELX0.000 F1348.000 E=41.873
N2332 X929.132 Y114.945 Z0.997 A0 B0 C25 ELX0.000 F1348.000 E=41.901
N2334 X933.736 Y110.169 Z0.997 A0 B0 C25 ELX0.000 F1348.000 E=41.941
N2336 X938.867 Y105.282 Z0.997 A0 B0 C25 ELX0.000 F1348.000 E=41.983
N2338 X941.837 Y102.586 Z0.997 A0 B0 C25 ELX0.000 F1348.000 E=42.007
N2340 X944.805 Y100.124 Z0.997 A0 B0 C25 ELX0.000 F1348.000 E=42.030
N2342 X949.283 Y96.507 Z0.997 A0 B0 C25 ELX0.000 F1348.000 E=42.065
N2344 X953.205 Y93.319 Z0.997 A0 B0 C25 ELX0.000 F1348.000 E=42.095
N2346 X955.533 Y91.264 Z0.997 A0 B0 C25 ELX0.000 F1348.000 E=42.114
N2348 X958.075 Y89.002 Z0.997 A0 B0 C25 ELX0.000 F1348.000 E=42.134
N2350 X961.472 Y85.580 Z0.997 A0 B0 C25 ELX0.000 F1348.000 E=42.163
N2352 X965.904 Y79.786 Z0.997 A0 B0 C25 ELX0.000 F1348.000 E=42.207
N2354 X969.206 Y74.319 Z0.997 A0 B0 C25 ELX0.000 F1348.000 E=42.245
N2356 X971.621 Y68.728 Z0.997 A0 B0 C25 ELX0.000 F1348.000 E=42.282
N2358 X973.357 Y63.106 Z0.997 A0 B0 C25 ELX0.000 F1348.000 E=42.317
N2360 X974.343 Y57.657 Z0.997 A0 B0 C25 ELX0.000 F1348.000 E=42.350
N2362 X974.304 Y51.097 Z0.997 A0 B0 C25 ELX0.000 F1348.000 E=42.390
N2364 X973.269 Y46.222 Z0.997 A0 B0 C25 ELX0.000 F1348.000 E=42.420
N2366 X969.240 Y42.656 Z0.997 A0 B0 C25 ELX0.000 F1348.000 E=42.452
N2368 X965.028 Y41.358 Z0.997 A0 B0 C25 ELX0.000 F1348.000 E=42.478
N2370 X958.748 Y40.660 Z0.997 A0 B0 C25 ELX0.000 F1348.000 E=42.516
N2372 X952.959 Y40.585 Z0.997 A0 B0 C25 ELX0.000 F1348.000 E=42.551
N2374 X947.321 Y40.728 Z0.997 A0 B0 C25 ELX0.000 F1348.000 E=42.585
N2376 X942.026 Y40.946 Z0.997 A0 B0 C25 ELX0.000 F1348.000 E=42.617
N2378 X936.904 Y41.167 Z0.997 A0 B0 C25 ELX0.000 F1348.000 E=42.647
N2380 X930.641 Y41.414 Z0.997 A0 B0 C25 ELX0.000 F1348.000 E=42.685
N2382 X927.030 Y41.404 Z0.997 A0 B0 C25 ELX0.000 F1348.000 E=42.707
N2384 X922.419 Y41.380 Z0.997 A0 B0 C25 ELX0.000 F1348.000 E=42.734
N2386 X915.559 Y41.079 Z0.997 A0 B0 C25 ELX0.000 F1348.000 E=42.776
N2388 X907.748 Y40.398 Z0.997 A0 B0 C25 ELX0.000 F1348.000 E=42.823
N2390 X903.217 Y39.894 Z0.997 A0 B0 C25 ELX0.000 F1348.000 E=42.850
N2392 X899.937 Y39.571 Z0.997 A0 B0 C25 ELX0.000 F1348.000 E=42.870
N2394 X895.939 Y39.177 Z0.997 A0 B0 C25 ELX0.000 F1348.000 E=42.894
N2396 X890.513 Y38.733 Z0.997 A0 B0 C25 ELX0.000 F1348.000 E=42.927
N2398 X884.040 Y38.480 Z0.997 A0 B0 C25 ELX0.000 F1348.000 E=42.965
N2400 X880.655 Y38.251 Z0.997 A0 B0 C25 ELX0.000 F1348.000 E=42.986
N2402 X874.485 Y38.505 Z0.997 A0 B0 C25 ELX0.000 F1348.000 E=43.023
N2404 X866.891 Y38.626 Z0.997 A0 B0 C25 ELX0.000 F1348.000 E=43.068
N2406 X860.663 Y38.684 Z0.997 A0 B0 C25 ELX0.000 F1348.000 E=43.106
N2408 X856.219 Y38.699 Z0.997 A0 B0 C25 ELX0.000 F1348.000 E=43.132
N2410 X852.725 Y38.649 Z0.997 A0 B0 C25 ELX0.000 F1348.000 E=43.153
N2412 X847.694 Y38.530 Z0.997 A0 B0 C25 ELX0.000 F1348.000 E=43.184
N2414 X844.031 Y38.287 Z0.997 A0 B0 C25 ELX0.000 F1348.000 E=43.206
N2416 X837.607 Y38.087 Z0.997 A0 B0 C25 ELX0.000 F1348.000 E=43.244
N2418 X832.269 Y37.767 Z0.997 A0 B0 C25 ELX0.000 F1348.000 E=43.276
N2420 X826.226 Y37.494 Z0.997 A0 B0 C25 ELX0.000 F1348.000 E=43.313
N2422 X820.480 Y37.270 Z0.997 A0 B0 C25 ELX0.000 F1348.000 E=43.347
N2424 X816.084 Y36.983 Z0.997 A0 B0 C25 ELX0.000 F1348.000 E=43.373
N2426 X812.337 Y36.800 Z0.997 A0 B0 C25 ELX0.000 F1348.000 E=43.396
N2428 X807.159 Y36.564 Z0.997 A0 B0 C25 ELX0.000 F1348.000 E=43.427
N2430 X799.915 Y36.313 Z0.997 A0 B0 C25 ELX0.000 F1348.000 E=43.471
N2432 X793.395 Y36.046 Z0.997 A0 B0 C25 ELX0.000 F1348.000 E=43.510
N2434 X787.611 Y35.910 Z0.997 A0 B0 C25 ELX0.000 F1348.000 E=43.544
N2436 X784.433 Y35.824 Z0.997 A0 B0 C25 ELX0.000 F1348.000 E=43.564
N2438 X776.426 Y35.724 Z0.997 A0 B0 C25 ELX0.000 F1348.000 E=43.612
N2440 X772.067 Y35.663 Z0.997 A0 B0 C25 ELX0.000 F1348.000 E=43.638
N2442 X768.556 Y35.521 Z0.997 A0 B0 C25 ELX0.000 F1348.000 E=43.659
N2444 X760.637 Y35.381 Z0.997 A0 B0 C25 ELX0.000 F1348.000 E=43.706
N2446 X753.596 Y35.104 Z0.997 A0 B0 C25 ELX0.000 F1348.000 E=43.749
N2448 X746.174 Y34.751 Z0.997 A0 B0 C25 ELX0.000 F1348.000 E=43.793
N2450 X738.523 Y34.286 Z0.997 A0 B0 C25 ELX0.000 F1348.000 E=43.839
N2452 X738.523 Y34.286 Z1.497 A0 B0 C25 ELX0.000 F1500.000 E=43.639; Retract
N2454 X738.523 Y34.286 Z11.497 A0 B0 C25 ELX0.000 F1500.000; Departure
N2456 X738.523 Y34.286 Z11.497 A0 B0 C25 ELX0.000 F1500.000 E 43.339; Retract
N2458 X679.622 Y34.286 Z11.497 A0 B0 C25 ELX0.000 F1500.000; Apporach
N2460 X679.622 Y34.286 Z0.997 A0 B0 C25 ELX0.000 F1500.000 E 44.539; Engage
N2462 X682.692 Y34.922 Z0.997 A0 B0 C25 ELX0.000 F1348.000 E=44.558
N2464 X687.848 Y35.854 Z0.997 A0 B0 C25 ELX0.000 F1348.000 E=44.589
N2466 X693.245 Y36.699 Z0.997 A0 B0 C25 ELX0.000 F1348.000 E=44.622
N2468 X697.407 Y37.274 Z0.997 A0 B0 C25 ELX0.000 F1348.000 E=44.647
N2470 X703.673 Y37.951 Z0.997 A0 B0 C25 ELX0.000 F1348.000 E=44.685
N2472 X710.848 Y38.586 Z0.997 A0 B0 C25 ELX0.000 F1348.000 E=44.728
N2474 X717.755 Y39.132 Z0.997 A0 B0 C25 ELX0.000 F1348.000 E=44.770
N2476 X723.837 Y39.581 Z0.997 A0 B0 C25 ELX0.000 F1348.000 E=44.807
N2478 X729.356 Y39.995 Z0.997 A0 B0 C25 ELX0.000 F1348.000 E=44.840
N2480 X734.306 Y40.347 Z0.997 A0 B0 C25 ELX0.000 F1348.000 E=44.870
N2482 X741.076 Y40.819 Z0.997 A0 B0 C25 ELX0.000 F1348.000 E=44.910
N2484 X745.633 Y41.085 Z0.997 A0 B0 C25 ELX0.000 F1348.000 E=44.938
N2486 X750.765 Y41.379 Z0.997 A0 B0 C25 ELX0.000 F1348.000 E=44.969
N2488 X757.139 Y41.729 Z0.997 A0 B0 C25 ELX0.000 F1348.000 E=45.007
N2490 X762.082 Y41.913 Z0.997 A0 B0 C25 ELX0.000 F1348.000 E=45.037
N2492 X767.650 Y42.170 Z0.997 A0 B0 C25 ELX0.000 F1348.000 E=45.070
N2494 X773.958 Y42.400 Z0.997 A0 B0 C25 ELX0.000 F1348.000 E=45.108
N2496 X779.560 Y42.537 Z0.997 A0 B0 C25 ELX0.000 F1348.000 E=45.141
N2498 X785.663 Y42.770 Z0.997 A0 B0 C25 ELX0.000 F1348.000 E=45.178
N2500 X792.552 Y42.946 Z0.997 A0 B0 C25 ELX0.000 F1348.000 E=45.219
N2502 X798.539 Y43.188 Z0.997 A0 B0 C25 ELX0.000 F1348.000 E=45.255
N2504 X803.311 Y43.291 Z0.997 A0 B0 C25 ELX0.000 F1348.000 E=45.284
N2506 X808.546 Y43.462 Z0.997 A0 B0 C25 ELX0.000 F1348.000 E=45.315
N2508 X813.765 Y43.684 Z0.997 A0 B0 C25 ELX0.000 F1348.000 E=45.347
N2510 X819.687 Y43.857 Z0.997 A0 B0 C25 ELX0.000 F1348.000 E=45.382
N2512 X826.967 Y44.150 Z0.997 A0 B0 C25 ELX0.000 F1348.000 E=45.426
N2514 X830.742 Y44.266 Z0.997 A0 B0 C25 ELX0.000 F1348.000 E=45.449
N2516 X836.266 Y44.555 Z0.997 A0 B0 C25 ELX0.000 F1348.000 E=45.482
N2518 X841.866 Y44.785 Z0.997 A0 B0 C25 ELX0.000 F1348.000 E=45.516
N2520 X846.897 Y44.967 Z0.997 A0 B0 C25 ELX0.000 F1348.000 E=45.546
N2522 X853.741 Y45.153 Z0.997 A0 B0 C25 ELX0.000 F1348.000 E=45.587
N2524 X857.526 Y45.253 Z0.997 A0 B0 C25 ELX0.000 F1348.000 E=45.610
N2526 X863.119 Y45.337 Z0.997 A0 B0 C25 ELX0.000 F1348.000 E=45.643
N2528 X866.121 Y45.395 Z0.997 A0 B0 C25 ELX0.000 F1348.000 E=45.661
N2530 X869.792 Y45.406 Z0.997 A0 B0 C25 ELX0.000 F1348.000 E=45.683
N2532 X873.963 Y45.496 Z0.997 A0 B0 C25 ELX0.000 F1348.000 E=45.708
N2534 X877.959 Y45.526 Z0.997 A0 B0 C25 ELX0.000 F1348.000 E=45.732
N2536 X883.201 Y45.643 Z0.997 A0 B0 C25 ELX0.000 F1348.000 E=45.764
N2538 X887.803 Y45.827 Z0.997 A0 B0 C25 ELX0.000 F1348.000 E=45.791
N2540 X892.215 Y46.072 Z0.997 A0 B0 C25 ELX0.000 F1348.000 E=45.818
N2542 X897.409 Y46.377 Z0.997 A0 B0 C25 ELX0.000 F1348.000 E=45.849
N2544 X904.073 Y46.860 Z0.997 A0 B0 C25 ELX0.000 F1348.000 E=45.889
N2546 X910.903 Y47.222 Z0.997 A0 B0 C25 ELX0.000 F1348.000 E=45.930
N2548 X914.397 Y47.406 Z0.997 A0 B0 C25 ELX0.000 F1348.000 E=45.951
N2550 X918.062 Y47.578 Z0.997 A0 B0 C25 ELX0.000 F1348.000 E=45.973
N2552 X922.899 Y47.663 Z0.997 A0 B0 C25 ELX0.000 F1348.000 E=46.002
N2554 X927.980 Y47.657 Z0.997 A0 B0 C25 ELX0.000 F1348.000 E=46.033
N2556 X933.871 Y47.529 Z0.997 A0 B0 C25 ELX0.000 F1348.000 E=46.068
N2558 X940.076 Y47.335 Z0.997 A0 B0 C25 ELX0.000 F1348.000 E=46.105
N2560 X944.291 Y47.331 Z0.997 A0 B0 C25 ELX0.000 F1348.000 E=46.131
N2562 X948.746 Y47.465 Z0.997 A0 B0 C25 ELX0.000 F1348.000 E=46.157
N2564 X953.918 Y47.965 Z0.997 A0 B0 C25 ELX0.000 F1348.000 E=46.188
N2566 X958.745 Y49.324 Z0.997 A0 B0 C25 ELX0.000 F1348.000 E=46.219
N2568 X964.133 Y53.867 Z0.997 A0 B0 C25 ELX0.000 F1348.000 E=46.261
N2570 X965.755 Y59.427 Z0.997 A0 B0 C25 ELX0.000 F1348.000 E=46.296
N2572 X964.896 Y66.671 Z0.997 A0 B0 C25 ELX0.000 F1348.000 E=46.339
N2574 X963.238 Y71.013 Z0.997 A0 B0 C25 ELX0.000 F1348.000 E=46.367
N2576 X961.131 Y75.578 Z0.997 A0 B0 C25 ELX0.000 F1348.000 E=46.397
N2578 X958.426 Y79.522 Z0.997 A0 B0 C25 ELX0.000 F1348.000 E=46.426
N2580 X956.481 Y81.876 Z0.997 A0 B0 C25 ELX0.000 F1348.000 E=46.444
N2582 X954.037 Y84.379 Z0.997 A0 B0 C25 ELX0.000 F1348.000 E=46.465
N2584 X951.839 Y86.467 Z0.997 A0 B0 C25 ELX0.000 F1348.000 E=46.484
N2586 X947.156 Y90.310 Z0.997 A0 B0 C25 ELX0.000 F1348.000 E=46.520
N2588 X942.228 Y94.343 Z0.997 A0 B0 C25 ELX0.000 F1348.000 E=46.558
N2590 X938.371 Y97.394 Z0.997 A0 B0 C25 ELX0.000 F1348.000 E=46.588
N2592 X935.686 Y99.674 Z0.997 A0 B0 C25 ELX0.000 F1348.000 E=46.609
N2594 X930.305 Y104.506 Z0.997 A0 B0 C25 ELX0.000 F1348.000 E=46.652
N2596 X925.661 Y109.166 Z0.997 A0 B0 C25 ELX0.000 F1348.000 E=46.692
N2598 X921.798 Y113.234 Z0.997 A0 B0 C25 ELX0.000 F1348.000 E=46.725
N2600 X919.355 Y115.800 Z0.997 A0 B0 C25 ELX0.000 F1348.000 E=46.747
N2602 X916.688 Y118.629 Z0.997 A0 B0 C25 ELX0.000 F1348.000 E=46.770
N2604 X912.608 Y122.683 Z0.997 A0 B0 C25 ELX0.000 F1348.000 E=46.804
N2606 X907.693 Y127.276 Z0.997 A0 B0 C25 ELX0.000 F1348.000 E=46.845
N2608 X904.853 Y129.859 Z0.997 A0 B0 C25 ELX0.000 F1348.000 E=46.868
N2610 X901.290 Y133.012 Z0.997 A0 B0 C25 ELX0.000 F1348.000 E=46.896
N2612 X898.779 Y135.252 Z0.997 A0 B0 C25 ELX0.000 F1348.000 E=46.917
N2614 X896.003 Y137.818 Z0.997 A0 B0 C25 ELX0.000 F1348.000 E=46.939
N2616 X893.699 Y140.016 Z0.997 A0 B0 C25 ELX0.000 F1348.000 E=46.958
N2618 X891.171 Y142.612 Z0.997 A0 B0 C25 ELX0.000 F1348.000 E=46.980
N2620 X888.569 Y145.307 Z0.997 A0 B0 C25 ELX0.000 F1348.000 E=47.003
N2622 X886.434 Y147.639 Z0.997 A0 B0 C25 ELX0.000 F1348.000 E=47.022
N2624 X883.867 Y150.459 Z0.997 A0 B0 C25 ELX0.000 F1348.000 E=47.044
N2626 X878.437 Y156.404 Z0.997 A0 B0 C25 ELX0.000 F1348.000 E=47.093
N2628 X875.071 Y159.934 Z0.997 A0 B0 C25 ELX0.000 F1348.000 E=47.122
N2630 X872.007 Y163.016 Z0.997 A0 B0 C25 ELX0.000 F1348.000 E=47.148
N2632 X869.775 Y165.199 Z0.997 A0 B0 C25 ELX0.000 F1348.000 E=47.167
N2634 X867.403 Y167.461 Z0.997 A0 B0 C25 ELX0.000 F1348.000 E=47.186
N2636 X864.938 Y169.808 Z0.997 A0 B0 C25 ELX0.000 F1348.000 E=47.207
N2638 X861.805 Y172.627 Z0.997 A0 B0 C25 ELX0.000 F1348.000 E=47.232
N2640 X857.953 Y176.116 Z0.997 A0 B0 C25 ELX0.000 F1348.000 E=47.263
N2642 X855.407 Y178.551 Z0.997 A0 B0 C25 ELX0.000 F1348.000 E=47.284
N2644 X851.618 Y182.265 Z0.997 A0 B0 C25 ELX0.000 F1348.000 E=47.316
N2646 X848.068 Y185.593 Z0.997 A0 B0 C25 ELX0.000 F1348.000 E=47.345
N2648 X845.773 Y188.053 Z0.997 A0 B0 C25 ELX0.000 F1348.000 E=47.366
N2650 X843.056 Y190.750 Z0.997 A0 B0 C25 ELX0.000 F1348.000 E=47.389
N2652 X840.617 Y193.273 Z0.997 A0 B0 C25 ELX0.000 F1348.000 E=47.410
N2654 X837.911 Y195.912 Z0.997 A0 B0 C25 ELX0.000 F1348.000 E=47.432
N2656 X835.407 Y198.373 Z0.997 A0 B0 C25 ELX0.000 F1348.000 E=47.453
N2658 X833.022 Y200.641 Z0.997 A0 B0 C25 ELX0.000 F1348.000 E=47.473
N2660 X830.506 Y202.877 Z0.997 A0 B0 C25 ELX0.000 F1348.000 E=47.493
N2662 X827.765 Y205.284 Z0.997 A0 B0 C25 ELX0.000 F1348.000 E=47.515
N2664 X824.076 Y208.291 Z0.997 A0 B0 C25 ELX0.000 F1348.000 E=47.544
N2666 X820.465 Y211.004 Z0.997 A0 B0 C25 ELX0.000 F1348.000 E=47.571
N2668 X817.261 Y213.199 Z0.997 A0 B0 C25 ELX0.000 F1348.000 E=47.594
N2670 X812.529 Y216.205 Z0.997 A0 B0 C25 ELX0.000 F1348.000 E=47.628
N2672 X807.584 Y219.000 Z0.997 A0 B0 C25 ELX0.000 F1348.000 E=47.662
N2674 X804.476 Y220.560 Z0.997 A0 B0 C25 ELX0.000 F1348.000 E=47.683
N2676 X801.669 Y221.970 Z0.997 A0 B0 C25 ELX0.000 F1348.000 E=47.702
N2678 X796.108 Y224.455 Z0.997 A0 B0 C25 ELX0.000 F1348.000 E=47.738
N2680 X792.824 Y225.826 Z0.997 A0 B0 C25 ELX0.000 F1348.000 E=47.760
N2682 X787.599 Y227.842 Z0.997 A0 B0 C25 ELX0.000 F1348.000 E=47.793
N2684 X781.028 Y230.169 Z0.997 A0 B0 C25 ELX0.000 F1348.000 E=47.835
N2686 X776.117 Y231.768 Z0.997 A0 B0 C25 ELX0.000 F1348.000 E=47.866
N2688 X768.720 Y233.996 Z0.997 A0 B0 C25 ELX0.000 F1348.000 E=47.912
N2690 X763.916 Y235.337 Z0.997 A0 B0 C25 ELX0.000 F1348.000 E=47.942
N2692 X758.604 Y236.736 Z0.997 A0 B0 C25 ELX0.000 F1348.000 E=47.975
N2694 X753.341 Y238.050 Z0.997 A0 B0 C25 ELX0.000 F1348.000 E=48.008
N2696 X748.095 Y239.286 Z0.997 A0 B0 C25 ELX0.000 F1348.000 E=48.040
N2698 X741.993 Y240.648 Z0.997 A0 B0 C25 ELX0.000 F1348.000 E=48.078
N2700 X737.012 Y241.702 Z0.997 A0 B0 C25 ELX0.000 F1348.000 E=48.108
N2702 X729.747 Y243.162 Z0.997 A0 B0 C25 ELX0.000 F1348.000 E=48.153
N2704 X724.974 Y244.091 Z0.997 A0 B0 C25 ELX0.000 F1348.000 E=48.182
N2706 X718.852 Y245.255 Z0.997 A0 B0 C25 ELX0.000 F1348.000 E=48.219
N2708 X713.562 Y246.251 Z0.997 A0 B0 C25 ELX0.000 F1348.000 E=48.251
N2710 X706.508 Y247.580 Z0.997 A0 B0 C25 ELX0.000 F1348.000 E=48.295
N2712 X702.536 Y248.340 Z0.997 A0 B0 C25 ELX0.000 F1348.000 E=48.319
N2714 X699.506 Y248.902 Z0.997 A0 B0 C25 ELX0.000 F1348.000 E=48.337
N2716 X694.135 Y249.927 Z0.997 A0 B0 C25 ELX0.000 F1348.000 E=48.370
N2718 X690.238 Y250.715 Z0.997 A0 B0 C25 ELX0.000 F1348.000 E=48.394
N2720 X685.277 Y251.620 Z0.997 A0 B0 C25 ELX0.000 F1348.000 E=48.424
N2722 X682.033 Y252.239 Z0.997 A0 B0 C25 ELX0.000 F1348.000 E=48.444
N2724 X677.252 Y253.115 Z0.997 A0 B0 C25 ELX0.000 F1348.000 E=48.473
N2726 X672.025 Y254.081 Z0.997 A0 B0 C25 ELX0.000 F1348.000 E=48.505
N2728 X668.704 Y254.662 Z0.997 A0 B0 C25 ELX0.000 F1348.000 E=48.525
N2730 X665.702 Y255.221 Z0.997 A0 B0 C25 ELX0.000 F1348.000 E=48.544
N2732 X660.834 Y256.098 Z0.997 A0 B0 C25 ELX0.000 F1348.000 E=48.573
N2734 X655.396 Y257.068 Z0.997 A0 B0 C25 ELX0.000 F1348.000 E=48.606
N2736 X651.891 Y257.726 Z0.997 A0 B0 C25 ELX0.000 F1348.000 E=48.628
N2738 X646.589 Y258.709 Z0.997 A0 B0 C25 ELX0.000 F1348.000 E=48.660
N2740 X640.547 Y259.904 Z0.997 A0 B0 C25 ELX0.000 F1348.000 E=48.697
N2742 X637.538 Y260.513 Z0.997 A0 B0 C25 ELX0.000 F1348.000 E=48.716
N2744 X633.937 Y261.266 Z0.997 A0 B0 C25 ELX0.000 F1348.000 E=48.738
N2746 X626.829 Y262.783 Z0.997 A0 B0 C25 ELX0.000 F1348.000 E=48.781
N2748 X621.567 Y263.977 Z0.997 A0 B0 C25 ELX0.000 F1348.000 E=48.814
N2750 X615.329 Y265.407 Z0.997 A0 B0 C25 ELX0.000 F1348.000 E=48.852
N2752 X609.989 Y266.673 Z0.997 A0 B0 C25 ELX0.000 F1348.000 E=48.885
N2754 X606.069 Y267.618 Z0.997 A0 B0 C25 ELX0.000 F1348.000 E=48.909
N2756 X600.532 Y268.934 Z0.997 A0 B0 C25 ELX0.000 F1348.000 E=48.943
N2758 X594.923 Y270.197 Z0.997 A0 B0 C25 ELX0.000 F1348.000 E=48.978
N2760 X589.441 Y271.408 Z0.997 A0 B0 C25 ELX0.000 F1348.000 E=49.012
N2762 X585.735 Y272.235 Z0.997 A0 B0 C25 ELX0.000 F1348.000 E=49.034
N2764 X576.259 Y274.286 Z0.997 A0 B0 C25 ELX0.000 F1348.000 E=49.092
N2766 X576.259 Y274.286 Z1.497 A0 B0 C25 ELX0.000 F1500.000 E=48.892; Retract
N2768 X576.259 Y274.286 Z11.497 A0 B0 C25 ELX0.000 F1500.000; Departure
N2770 X576.259 Y274.286 Z11.497 A0 B0 C25 ELX0.000 F1500.000 E 48.592; Retract
N2772 X552.782 Y274.286 Z11.497 A0 B0 C25 ELX0.000 F1500.000; Apporach
N2774 X552.782 Y274.286 Z0.997 A0 B0 C25 ELX0.000 F1500.000 E 49.792; Engage
N2776 X559.781 Y271.912 Z0.997 A0 B0 C25 ELX0.000 F1348.000 E=49.837
N2778 X565.463 Y270.335 Z0.997 A0 B0 C25 ELX0.000 F1348.000 E=49.872
N2780 X569.217 Y269.455 Z0.997 A0 B0 C25 ELX0.000 F1348.000 E=49.895
N2782 X574.004 Y268.409 Z0.997 A0 B0 C25 ELX0.000 F1348.000 E=49.925
N2784 X579.029 Y267.383 Z0.997 A0 B0 C25 ELX0.000 F1348.000 E=49.955
N2786 X585.679 Y266.034 Z0.997 A0 B0 C25 ELX0.000 F1348.000 E=49.996
N2788 X593.957 Y264.221 Z0.997 A0 B0 C25 ELX0.000 F1348.000 E=50.047
N2790 X601.275 Y262.518 Z0.997 A0 B0 C25 ELX0.000 F1348.000 E=50.092
N2792 X609.220 Y260.607 Z0.997 A0 B0 C25 ELX0.000 F1348.000 E=50.141
N2794 X614.358 Y259.375 Z0.997 A0 B0 C25 ELX0.000 F1348.000 E=50.173
N2796 X619.153 Y258.252 Z0.997 A0 B0 C25 ELX0.000 F1348.000 E=50.202
N2798 X622.092 Y257.582 Z0.997 A0 B0 C25 ELX0.000 F1348.000 E=50.220
N2800 X626.691 Y256.557 Z0.997 A0 B0 C25 ELX0.000 F1348.000 E=50.249
N2802 X629.734 Y255.896 Z0.997 A0 B0 C25 ELX0.000 F1348.000 E=50.267
N2804 X633.999 Y254.992 Z0.997 A0 B0 C25 ELX0.000 F1348.000 E=50.294
N2806 X639.139 Y253.940 Z0.997 A0 B0 C25 ELX0.000 F1348.000 E=50.325
N2808 X643.236 Y253.112 Z0.997 A0 B0 C25 ELX0.000 F1348.000 E=50.350
N2810 X648.240 Y252.136 Z0.997 A0 B0 C25 ELX0.000 F1348.000 E=50.381
N2812 X654.981 Y250.855 Z0.997 A0 B0 C25 ELX0.000 F1348.000 E=50.422
N2814 X660.092 Y249.911 Z0.997 A0 B0 C25 ELX0.000 F1348.000 E=50.453
N2816 X663.464 Y249.285 Z0.997 A0 B0 C25 ELX0.000 F1348.000 E=50.474
N2818 X669.405 Y248.210 Z0.997 A0 B0 C25 ELX0.000 F1348.000 E=50.510
N2820 X673.647 Y247.436 Z0.997 A0 B0 C25 ELX0.000 F1348.000 E=50.536
N2822 X678.322 Y246.590 Z0.997 A0 B0 C25 ELX0.000 F1348.000 E=50.564
N2824 X681.338 Y246.036 Z0.997 A0 B0 C25 ELX0.000 F1348.000 E=50.583
N2826 X687.502 Y244.916 Z0.997 A0 B0 C25 ELX0.000 F1348.000 E=50.620
N2828 X692.576 Y244.010 Z0.997 A0 B0 C25 ELX0.000 F1348.000 E=50.651
N2830 X697.313 Y243.130 Z0.997 A0 B0 C25 ELX0.000 F1348.000 E=50.680
N2832 X701.696 Y242.330 Z0.997 A0 B0 C25 ELX0.000 F1348.000 E=50.707
N2834 X705.826 Y241.572 Z0.997 A0 B0 C25 ELX0.000 F1348.000 E=50.732
N2836 X711.613 Y240.501 Z0.997 A0 B0 C25 ELX0.000 F1348.000 E=50.767
N2838 X716.303 Y239.608 Z0.997 A0 B0 C25 ELX0.000 F1348.000 E=50.796
N2840 X719.320 Y239.039 Z0.997 A0 B0 C25 ELX0.000 F1348.000 E=50.814
N2842 X726.367 Y237.677 Z0.997 A0 B0 C25 ELX0.000 F1348.000 E=50.857
N2844 X729.815 Y236.984 Z0.997 A0 B0 C25 ELX0.000 F1348.000 E=50.879
N2846 X734.052 Y236.120 Z0.997 A0 B0 C25 ELX0.000 F1348.000 E=50.905
N2848 X739.388 Y235.010 Z0.997 A0 B0 C25 ELX0.000 F1348.000 E=50.937
N2850 X745.634 Y233.641 Z0.997 A0 B0 C25 ELX0.000 F1348.000 E=50.976
N2852 X748.750 Y232.924 Z0.997 A0 B0 C25 ELX0.000 F1348.000 E=50.995
N2854 X754.364 Y231.588 Z0.997 A0 B0 C25 ELX0.000 F1348.000 E=51.029
N2856 X759.594 Y230.268 Z0.997 A0 B0 C25 ELX0.000 F1348.000 E=51.062
N2858 X764.727 Y228.886 Z0.997 A0 B0 C25 ELX0.000 F1348.000 E=51.094
N2860 X767.970 Y227.962 Z0.997 A0 B0 C25 ELX0.000 F1348.000 E=51.114
N2862 X772.851 Y226.496 Z0.997 A0 B0 C25 ELX0.000 F1348.000 E=51.144
N2864 X776.349 Y225.377 Z0.997 A0 B0 C25 ELX0.000 F1348.000 E=51.167
N2866 X782.014 Y223.450 Z0.997 A0 B0 C25 ELX0.000 F1348.000 E=51.202
N2868 X784.946 Y222.370 Z0.997 A0 B0 C25 ELX0.000 F1348.000 E=51.221
N2870 X788.465 Y221.031 Z0.997 A0 B0 C25 ELX0.000 F1348.000 E=51.244
N2872 X792.223 Y219.505 Z0.997 A0 B0 C25 ELX0.000 F1348.000 E=51.268
N2874 X797.086 Y217.374 Z0.997 A0 B0 C25 ELX0.000 F1348.000 E=51.300
N2876 X801.423 Y215.288 Z0.997 A0 B0 C25 ELX0.000 F1348.000 E=51.329
N2878 X808.541 Y211.437 Z0.997 A0 B0 C25 ELX0.000 F1348.000 E=51.377
N2880 X812.083 Y209.260 Z0.997 A0 B0 C25 ELX0.000 F1348.000 E=51.402
N2882 X814.701 Y207.518 Z0.997 A0 B0 C25 ELX0.000 F1348.000 E=51.421
N2884 X817.400 Y205.607 Z0.997 A0 B0 C25 ELX0.000 F1348.000 E=51.441
N2886 X820.326 Y203.402 Z0.997 A0 B0 C25 ELX0.000 F1348.000 E=51.463
N2888 X822.691 Y201.518 Z0.997 A0 B0 C25 ELX0.000 F1348.000 E=51.481
N2890 X826.849 Y197.868 Z0.997 A0 B0 C25 ELX0.000 F1348.000 E=51.514
N2892 X831.193 Y193.519 Z0.997 A0 B0 C25 ELX0.000 F1348.000 E=51.551
N2894 X833.524 Y191.178 Z0.997 A0 B0 C25 ELX0.000 F1348.000 E=51.571
N2896 X835.814 Y188.735 Z0.997 A0 B0 C25 ELX0.000 F1348.000 E=51.591
N2898 X841.790 Y181.987 Z0.997 A0 B0 C25 ELX0.000 F1348.000 E=51.645
N2900 X844.202 Y179.510 Z0.997 A0 B0 C25 ELX0.000 F1348.000 E=51.666
N2902 X846.224 Y177.030 Z0.997 A0 B0 C25 ELX0.000 F1348.000 E=51.685
N2904 X849.477 Y174.048 Z0.997 A0 B0 C25 ELX0.000 F1348.000 E=51.712
N2906 X852.266 Y171.657 Z0.997 A0 B0 C25 ELX0.000 F1348.000 E=51.734
N2908 X858.155 Y166.521 Z0.997 A0 B0 C25 ELX0.000 F1348.000 E=51.781
N2910 X863.050 Y162.374 Z0.997 A0 B0 C25 ELX0.000 F1348.000 E=51.819
N2912 X866.904 Y158.894 Z0.997 A0 B0 C25 ELX0.000 F1348.000 E=51.850
N2914 X869.562 Y156.539 Z0.997 A0 B0 C25 ELX0.000 F1348.000 E=51.872
